;FLAVOR:Marlin
;TIME:1856
;Filament used: 0.836235m
;Layer height: 0.2
;MINX:87.066
;MINY:87.066
;MINZ:0.2
;MAXX:132.934
;MAXY:132.933
;MAXZ:31.2
;Generated with Cura_SteamEngine 5.4.0
M82 ;absolute extrusion mode
; Ender 3 Custom Start G-code
G92 E0 ; Reset Extruder
G28 ; Home all axes
M104 S175 ; Start heating up the nozzle most of the way
M190 S60 ; Start heating the bed, wait until target temperature reached
M109 S200 ; Finish heating the nozzle
G1 Z2.0 F3000 ; Move Z Axis up little to prevent scratching of Heat Bed
G1 X0.1 Y20 Z0.3 F5000.0 ; Move to start position
G1 X0.1 Y200.0 Z0.3 F1500.0 E15 ; Draw the first line
G1 X0.4 Y200.0 Z0.3 F5000.0 ; Move to side a little
G1 X0.4 Y20 Z0.3 F1500.0 E30 ; Draw the second line
G92 E0 ; Reset Extruder
G1 Z2.0 F3000 ; Move Z Axis up little to prevent scratching of Heat Bed
G1 X5 Y20 Z0.3 F5000.0 ; Move over to prevent blob squish
G92 E0
G92 E0
G1 F1500 E-6.5
;LAYER_COUNT:156
;LAYER:0
M107
G0 F6000 X93.86 Y93.707 Z0.2
;TYPE:SKIRT
G1 F1500 E0
G1 F1200 X94.64 Y92.967 E0.03576
G1 X95.045 Y92.61 E0.05372
G1 X95.511 Y92.221 E0.07391
G1 X96.444 Y91.501 E0.1131
G1 X96.849 Y91.21 E0.12969
G1 X97.33 Y90.883 E0.14904
G1 X97.754 Y90.609 E0.16583
G1 X98.273 Y90.29 E0.18609
G1 X98.73 Y90.025 E0.20366
G1 X99.241 Y89.745 E0.22304
G1 X99.715 Y89.502 E0.24076
G1 X100.297 Y89.221 E0.26225
G1 X100.778 Y89.003 E0.27982
G1 X101.348 Y88.761 E0.30041
G1 X101.846 Y88.564 E0.31822
G1 X102.419 Y88.356 E0.3385
G1 X103.417 Y88.032 E0.3734
G1 X103.897 Y87.893 E0.39002
G1 X104.496 Y87.737 E0.41061
G1 X105.028 Y87.611 E0.42879
G1 X105.643 Y87.484 E0.44968
G1 X106.729 Y87.3 E0.48631
G1 X107.271 Y87.229 E0.50449
G1 X107.918 Y87.162 E0.52613
G1 X108.985 Y87.089 E0.5617
G1 X110 Y87.066 E0.59547
G1 X110.521 Y87.072 E0.6128
G1 X111.22 Y87.099 E0.63606
G1 X112.206 Y87.172 E0.66895
G1 X113.417 Y87.323 E0.70954
G1 X113.946 Y87.408 E0.72736
G1 X114.485 Y87.508 E0.74559
G1 X115.021 Y87.623 E0.76382
G1 X115.66 Y87.776 E0.78568
G1 X116.154 Y87.907 E0.80268
G1 X116.721 Y88.073 E0.82233
G1 X117.218 Y88.231 E0.83967
G1 X117.788 Y88.428 E0.85973
G1 X118.826 Y88.832 E0.89678
G1 X119.346 Y89.056 E0.91561
G1 X119.903 Y89.315 E0.93604
G1 X120.869 Y89.806 E0.97208
G1 X121.352 Y90.075 E0.99047
G1 X121.914 Y90.406 E1.01216
G1 X122.349 Y90.678 E1.02923
G1 X122.867 Y91.018 E1.04983
G1 X123.311 Y91.326 E1.06781
G1 X123.809 Y91.691 E1.08834
G1 X124.22 Y92.007 E1.10559
G1 X124.7 Y92.397 E1.12616
G1 X125.12 Y92.757 E1.14456
G1 X125.579 Y93.171 E1.16511
G1 X126.339 Y93.906 E1.20028
G1 X127.08 Y94.698 E1.23635
G1 X127.44 Y95.11 E1.25455
G1 X127.874 Y95.634 E1.27718
G1 X128.211 Y96.061 E1.29527
G1 X128.565 Y96.538 E1.31503
G1 X129.175 Y97.421 E1.35072
G1 X129.455 Y97.86 E1.36804
G1 X129.748 Y98.343 E1.38683
G1 X129.999 Y98.78 E1.40359
G1 X130.324 Y99.38 E1.42629
G1 X130.57 Y99.86 E1.44423
G1 X130.819 Y100.382 E1.46346
G1 X131.229 Y101.327 E1.49773
G1 X131.429 Y101.835 E1.51588
G1 X131.671 Y102.503 E1.53952
G1 X132.002 Y103.536 E1.57559
G1 X132.27 Y104.524 E1.60964
G1 X132.399 Y105.087 E1.62885
G1 X132.544 Y105.804 E1.65318
G1 X132.709 Y106.81 E1.68709
G1 X132.778 Y107.352 E1.70526
G1 X132.842 Y107.979 E1.72623
G1 X132.881 Y108.474 E1.74274
G1 X132.929 Y109.548 E1.7785
G1 X132.934 Y110.097 E1.79676
G1 X132.927 Y110.602 E1.81356
G1 X132.903 Y111.206 E1.83366
G1 X132.828 Y112.206 E1.86701
G1 X132.773 Y112.702 E1.88361
G1 X132.677 Y113.419 E1.90767
G1 X132.588 Y113.967 E1.92614
G1 X132.481 Y114.536 E1.94539
G1 X132.368 Y115.066 E1.96342
G1 X132.218 Y115.683 E1.98454
G1 X131.928 Y116.718 E2.02029
G1 X131.765 Y117.228 E2.0381
G1 X131.561 Y117.815 E2.05877
G1 X131.168 Y118.825 E2.09481
G1 X130.945 Y119.342 E2.11354
G1 X130.489 Y120.304 E2.14895
G1 X130.21 Y120.842 E2.1691
G1 X129.937 Y121.336 E2.18788
G1 X129.623 Y121.872 E2.20854
G1 X129.348 Y122.314 E2.22585
G1 X128.735 Y123.229 E2.26248
G1 X128.386 Y123.71 E2.28225
G1 X128.073 Y124.118 E2.29935
G1 X127.672 Y124.618 E2.32067
G1 X127.309 Y125.047 E2.33936
G1 X126.577 Y125.849 E2.37548
G1 X125.794 Y126.63 E2.41226
G1 X125.369 Y127.026 E2.43158
G1 X124.954 Y127.389 E2.44992
G1 X124.487 Y127.779 E2.47015
G1 X124.071 Y128.109 E2.48782
G1 X123.556 Y128.499 E2.5093
G1 X123.151 Y128.79 E2.52589
G1 X122.67 Y129.117 E2.54523
G1 X122.246 Y129.391 E2.56202
G1 X121.727 Y129.71 E2.58229
G1 X121.27 Y129.975 E2.59986
G1 X120.759 Y130.255 E2.61924
G1 X120.285 Y130.498 E2.63695
G1 X119.703 Y130.779 E2.65845
G1 X119.222 Y130.997 E2.67601
G1 X118.652 Y131.239 E2.69661
G1 X118.154 Y131.436 E2.71442
G1 X117.581 Y131.644 E2.7347
G1 X116.583 Y131.968 E2.7696
G1 X116.103 Y132.107 E2.78622
G1 X115.504 Y132.263 E2.8068
G1 X114.972 Y132.389 E2.82499
G1 X114.357 Y132.516 E2.84587
G1 X113.271 Y132.7 E2.88251
G1 X112.729 Y132.771 E2.90069
G1 X112.082 Y132.838 E2.92233
G1 X111.017 Y132.911 E2.95783
G1 X110.082 Y132.933 E2.98894
G1 X109.577 Y132.927 E3.00573
G1 X108.774 Y132.897 E3.03246
G1 X108.151 Y132.856 E3.05323
G1 X107.481 Y132.793 E3.07561
G1 X106.446 Y132.656 E3.11033
G1 X105.464 Y132.48 E3.14352
G1 X104.94 Y132.369 E3.16133
G1 X104.329 Y132.221 E3.18224
G1 X103.815 Y132.084 E3.19993
G1 X103.214 Y131.905 E3.22079
G1 X102.666 Y131.727 E3.23995
G1 X102.002 Y131.491 E3.26339
G1 X101.517 Y131.306 E3.28066
G1 X101.014 Y131.098 E3.29876
G1 X100.004 Y130.639 E3.33566
G1 X99.121 Y130.189 E3.36862
G1 X98.642 Y129.922 E3.38686
G1 X98.079 Y129.59 E3.4086
G1 X97.644 Y129.319 E3.42565
G1 X97.129 Y128.98 E3.44615
G1 X96.694 Y128.678 E3.46377
G1 X96.194 Y128.312 E3.48438
G1 X95.77 Y127.984 E3.50221
G1 X95.291 Y127.595 E3.52273
G1 X94.88 Y127.243 E3.54073
G1 X94.422 Y126.83 E3.56124
G1 X93.661 Y126.094 E3.59645
G1 X92.92 Y125.303 E3.6325
G1 X92.561 Y124.892 E3.65065
G1 X92.121 Y124.361 E3.67359
G1 X91.793 Y123.945 E3.69121
G1 X91.469 Y123.512 E3.70919
G1 X91.172 Y123.094 E3.72625
G1 X90.82 Y122.571 E3.74722
G1 X90.261 Y121.674 E3.78237
G1 X89.991 Y121.204 E3.8004
G1 X89.655 Y120.582 E3.82391
G1 X89.406 Y120.089 E3.84228
G1 X88.986 Y119.182 E3.87553
G1 X88.595 Y118.233 E3.90966
G1 X88.249 Y117.266 E3.94382
G1 X88.018 Y116.529 E3.96951
G1 X87.868 Y116.009 E3.98751
G1 X87.732 Y115.487 E4.00545
G1 X87.595 Y114.885 E4.02599
G1 X87.446 Y114.139 E4.05129
G1 X87.288 Y113.169 E4.08398
G1 X87.219 Y112.623 E4.10228
G1 X87.154 Y111.968 E4.12418
G1 X87.086 Y110.912 E4.15937
G1 X87.066 Y109.906 E4.19284
G1 X87.073 Y109.4 E4.20967
G1 X87.097 Y108.8 E4.22964
G1 X87.136 Y108.227 E4.24874
G1 X87.197 Y107.573 E4.27059
G1 X87.253 Y107.086 E4.28689
G1 X87.332 Y106.517 E4.306
G1 X87.525 Y105.433 E4.34262
G1 X87.643 Y104.88 E4.36143
G1 X87.788 Y104.289 E4.38167
G1 X88.079 Y103.258 E4.4173
G1 X88.415 Y102.251 E4.45261
G1 X88.596 Y101.766 E4.46982
G1 X88.831 Y101.177 E4.49092
G1 X89.056 Y100.658 E4.50973
G1 X89.517 Y99.685 E4.54554
G1 X89.801 Y99.137 E4.56607
G1 X90.066 Y98.66 E4.58422
G1 X90.375 Y98.132 E4.60457
G1 X90.655 Y97.682 E4.6222
G1 X91.264 Y96.774 E4.65856
G1 X91.935 Y95.87 E4.696
G1 X92.336 Y95.372 E4.71727
G1 X92.678 Y94.967 E4.7349
G1 X93.066 Y94.532 E4.75429
G1 X93.86 Y93.707 E4.79237
G0 F6000 X94.135 Y93.997
G1 F1200 X94.905 Y93.267 E4.82766
G1 X95.302 Y92.917 E4.84526
G1 X95.759 Y92.535 E4.86507
G1 X96.17 Y92.21 E4.8825
G1 X96.678 Y91.826 E4.90368
G1 X97.074 Y91.541 E4.91991
G1 X97.547 Y91.219 E4.93894
G1 X97.963 Y90.95 E4.95542
G1 X98.474 Y90.636 E4.97537
G1 X98.922 Y90.376 E4.99259
G1 X99.424 Y90.101 E5.01163
G1 X99.889 Y89.862 E5.02902
G1 X100.462 Y89.585 E5.05019
G1 X100.934 Y89.371 E5.06743
G1 X101.495 Y89.133 E5.0877
G1 X101.983 Y88.94 E5.10515
G1 X102.543 Y88.736 E5.12497
G1 X103.528 Y88.416 E5.15942
G1 X103.998 Y88.28 E5.17569
G1 X104.588 Y88.126 E5.19597
G1 X105.109 Y88.003 E5.21378
G1 X105.71 Y87.878 E5.2342
G1 X106.781 Y87.697 E5.27032
G1 X107.313 Y87.627 E5.28817
G1 X107.945 Y87.561 E5.3093
G1 X108.994 Y87.489 E5.34428
G1 X109.995 Y87.466 E5.37758
G1 X110.506 Y87.472 E5.39458
G1 X111.19 Y87.498 E5.41734
G1 X112.162 Y87.57 E5.44976
G1 X112.649 Y87.624 E5.46606
G1 X113.354 Y87.718 E5.48971
G1 X113.873 Y87.801 E5.50719
G1 X114.401 Y87.899 E5.52505
G1 X114.928 Y88.012 E5.54298
G1 X115.558 Y88.163 E5.56453
G1 X116.042 Y88.291 E5.58118
G1 X116.6 Y88.454 E5.60051
G1 X117.087 Y88.609 E5.61751
G1 X117.643 Y88.801 E5.63708
G1 X118.668 Y89.2 E5.67366
G1 X119.178 Y89.419 E5.69212
G1 X119.722 Y89.671 E5.71206
G1 X120.675 Y90.156 E5.74763
G1 X121.149 Y90.419 E5.76566
G1 X121.703 Y90.746 E5.78705
G1 X122.13 Y91.012 E5.80379
G1 X122.639 Y91.346 E5.82403
G1 X123.075 Y91.649 E5.84169
G1 X123.565 Y92.008 E5.8619
G1 X123.968 Y92.318 E5.87881
G1 X124.44 Y92.701 E5.89902
G1 X124.852 Y93.054 E5.91707
G1 X125.301 Y93.459 E5.93718
G1 X126.047 Y94.18 E5.97169
G1 X126.779 Y94.961 E6.00729
G1 X127.132 Y95.365 E6.02513
G1 X127.56 Y95.881 E6.04743
G1 X127.89 Y96.3 E6.06517
G1 X128.236 Y96.765 E6.08445
G1 X128.838 Y97.636 E6.11966
G1 X129.113 Y98.067 E6.13667
G1 X129.401 Y98.542 E6.15514
G1 X129.647 Y98.97 E6.17156
G1 X129.968 Y99.563 E6.19399
G1 X130.209 Y100.033 E6.21156
G1 X130.452 Y100.541 E6.23029
G1 X130.857 Y101.474 E6.26412
G1 X131.053 Y101.971 E6.28189
G1 X131.29 Y102.625 E6.30502
G1 X131.616 Y103.641 E6.34051
G1 X131.88 Y104.614 E6.37404
G1 X132.007 Y105.166 E6.39288
G1 X132.149 Y105.869 E6.41674
G1 X132.312 Y106.861 E6.45017
G1 X132.38 Y107.393 E6.46801
G1 X132.443 Y108.01 E6.48864
G1 X132.481 Y108.492 E6.50472
G1 X132.529 Y109.552 E6.54001
G1 X132.534 Y110.091 E6.55794
G1 X132.527 Y110.586 E6.57441
G1 X132.504 Y111.176 E6.59405
G1 X132.43 Y112.162 E6.62693
G1 X132.376 Y112.649 E6.64323
G1 X132.282 Y113.355 E6.66692
G1 X132.195 Y113.893 E6.68504
G1 X132.09 Y114.452 E6.70396
G1 X131.979 Y114.972 E6.72165
G1 X131.833 Y115.575 E6.74228
G1 X131.547 Y116.596 E6.77755
G1 X131.387 Y117.097 E6.79504
G1 X131.188 Y117.67 E6.81522
G1 X130.801 Y118.667 E6.85079
G1 X130.584 Y119.171 E6.86904
G1 X130.134 Y120.12 E6.90397
G1 X129.86 Y120.649 E6.92378
G1 X129.592 Y121.134 E6.94221
G1 X129.283 Y121.661 E6.96253
G1 X129.016 Y122.091 E6.97937
G1 X128.411 Y122.994 E7.01552
G1 X128.068 Y123.467 E7.03495
G1 X127.761 Y123.868 E7.05175
G1 X127.366 Y124.36 E7.07274
G1 X127.014 Y124.777 E7.09089
G1 X126.294 Y125.566 E7.12641
G1 X125.522 Y126.337 E7.1627
G1 X125.105 Y126.725 E7.18165
G1 X124.698 Y127.082 E7.19965
G1 X124.238 Y127.466 E7.21958
G1 X123.83 Y127.79 E7.23691
G1 X123.322 Y128.174 E7.25809
G1 X122.926 Y128.459 E7.27432
G1 X122.453 Y128.781 E7.29335
G1 X122.037 Y129.05 E7.30983
G1 X121.526 Y129.364 E7.32978
G1 X121.078 Y129.624 E7.347
G1 X120.576 Y129.899 E7.36604
G1 X120.111 Y130.138 E7.38343
G1 X119.538 Y130.415 E7.4046
G1 X119.066 Y130.629 E7.42184
G1 X118.505 Y130.867 E7.4421
G1 X118.017 Y131.06 E7.45956
G1 X117.457 Y131.264 E7.47938
G1 X116.472 Y131.584 E7.51383
G1 X116.002 Y131.72 E7.5301
G1 X115.412 Y131.874 E7.55038
G1 X114.891 Y131.997 E7.56819
G1 X114.29 Y132.122 E7.5886
G1 X113.219 Y132.303 E7.62473
G1 X112.687 Y132.373 E7.64258
G1 X112.055 Y132.439 E7.66371
G1 X111.007 Y132.511 E7.69865
G1 X110.087 Y132.533 E7.72926
G1 X109.592 Y132.527 E7.74572
G1 X108.8 Y132.498 E7.77208
G1 X108.189 Y132.458 E7.79245
G1 X107.533 Y132.396 E7.81437
G1 X106.516 Y132.262 E7.84848
G1 X105.547 Y132.089 E7.88122
G1 X105.034 Y131.98 E7.89867
G1 X104.432 Y131.834 E7.91927
G1 X103.929 Y131.7 E7.93658
G1 X103.338 Y131.525 E7.95708
G1 X102.8 Y131.35 E7.9759
G1 X102.144 Y131.117 E7.99905
G1 X101.669 Y130.936 E8.01596
G1 X101.179 Y130.734 E8.03359
G1 X100.186 Y130.283 E8.06986
G1 X99.316 Y129.84 E8.10233
G1 X98.845 Y129.577 E8.12028
G1 X98.29 Y129.25 E8.1417
G1 X97.864 Y128.985 E8.15839
G1 X97.357 Y128.652 E8.17856
G1 X96.93 Y128.355 E8.19586
G1 X96.438 Y127.995 E8.21614
G1 X96.022 Y127.674 E8.23362
G1 X95.551 Y127.291 E8.25381
G1 X95.148 Y126.946 E8.27145
G1 X94.7 Y126.542 E8.29152
G1 X93.953 Y125.82 E8.32607
G1 X93.221 Y125.04 E8.36165
G1 X92.869 Y124.637 E8.37944
G1 X92.435 Y124.114 E8.40205
G1 X92.113 Y123.705 E8.41936
G1 X91.795 Y123.28 E8.43702
G1 X91.504 Y122.87 E8.45374
G1 X91.159 Y122.359 E8.47425
G1 X90.608 Y121.475 E8.50889
G1 X90.343 Y121.014 E8.52658
G1 X90.012 Y120.402 E8.54972
G1 X89.769 Y119.921 E8.56764
G1 X89.356 Y119.03 E8.60031
G1 X88.972 Y118.098 E8.63383
G1 X88.631 Y117.146 E8.66747
G1 X88.402 Y116.418 E8.69285
G1 X88.255 Y115.908 E8.7105
G1 X88.122 Y115.398 E8.72803
G1 X87.987 Y114.807 E8.7482
G1 X87.841 Y114.075 E8.77302
G1 X87.685 Y113.119 E8.80524
G1 X87.617 Y112.583 E8.82321
G1 X87.553 Y111.942 E8.84463
G1 X87.486 Y110.904 E8.87923
G1 X87.466 Y109.912 E8.91223
G1 X87.473 Y109.416 E8.92873
G1 X87.496 Y108.827 E8.94833
G1 X87.534 Y108.264 E8.9671
G1 X87.594 Y107.619 E8.98865
G1 X87.649 Y107.141 E9.00465
G1 X87.726 Y106.587 E9.02325
G1 X87.916 Y105.517 E9.0594
G1 X88.032 Y104.975 E9.07784
G1 X88.173 Y104.398 E9.09759
G1 X88.459 Y103.384 E9.13263
G1 X88.79 Y102.39 E9.16748
G1 X88.967 Y101.914 E9.18437
G1 X89.198 Y101.336 E9.20507
G1 X89.417 Y100.829 E9.22344
G1 X89.872 Y99.869 E9.25878
G1 X90.151 Y99.331 E9.27893
G1 X90.411 Y98.862 E9.29677
G1 X90.715 Y98.343 E9.31677
G1 X90.987 Y97.905 E9.33392
G1 X91.588 Y97.009 E9.36981
G1 X91.93 Y96.538 E9.38917
G1 X92.247 Y96.121 E9.40659
G1 X92.642 Y95.63 E9.42755
G1 X92.977 Y95.233 E9.44482
G1 X93.354 Y94.809 E9.46369
G1 X94.135 Y93.997 E9.50117
G0 F6000 X94.414 Y94.284
G1 F1200 X94.757 Y93.95 E9.51709
G1 X95.17 Y93.567 E9.53582
G1 X95.559 Y93.224 E9.55307
G1 X96.007 Y92.849 E9.57251
G1 X96.411 Y92.529 E9.58965
G1 X96.912 Y92.151 E9.61052
G1 X97.308 Y91.866 E9.62675
G1 X97.764 Y91.555 E9.64511
G1 X98.172 Y91.291 E9.66127
G1 X98.675 Y90.982 E9.6809
G1 X99.114 Y90.727 E9.69779
G1 X99.607 Y90.457 E9.71649
G1 X100.063 Y90.222 E9.73355
G1 X100.627 Y89.949 E9.75439
G1 X101.09 Y89.739 E9.7713
G1 X101.642 Y89.505 E9.79124
G1 X102.12 Y89.316 E9.80833
G1 X102.667 Y89.116 E9.82771
G1 X103.639 Y88.8 E9.8617
G1 X104.1 Y88.667 E9.87766
G1 X104.679 Y88.515 E9.89757
G1 X105.191 Y88.395 E9.91506
G1 X105.782 Y88.272 E9.93514
G1 X106.27 Y88.183 E9.95164
G1 X106.834 Y88.094 E9.97063
G1 X107.355 Y88.025 E9.98811
G1 X107.972 Y87.96 E10.00874
G1 X109.003 Y87.889 E10.04311
G1 X109.99 Y87.866 E10.07595
G1 X110.491 Y87.872 E10.09262
G1 X111.16 Y87.897 E10.11488
G1 X112.119 Y87.968 E10.14687
G1 X112.596 Y88.02 E10.16282
G1 X113.291 Y88.113 E10.18615
G1 X113.8 Y88.194 E10.20329
G1 X114.317 Y88.29 E10.22078
G1 X114.835 Y88.401 E10.2384
G1 X115.456 Y88.55 E10.25964
G1 X115.93 Y88.675 E10.27594
G1 X116.479 Y88.835 E10.29496
G1 X116.956 Y88.987 E10.31161
G1 X117.503 Y89.176 E10.33086
G1 X117.96 Y89.347 E10.34709
G1 X118.51 Y89.567 E10.36679
G1 X119.01 Y89.782 E10.3849
G1 X119.541 Y90.028 E10.40436
G1 X120.481 Y90.506 E10.43944
G1 X120.946 Y90.764 E10.45712
G1 X121.492 Y91.086 E10.47821
G1 X121.91 Y91.346 E10.49458
G1 X122.411 Y91.675 E10.51451
G1 X122.839 Y91.972 E10.53184
G1 X123.321 Y92.325 E10.55171
G1 X123.716 Y92.629 E10.56829
G1 X124.18 Y93.005 E10.58815
G1 X124.584 Y93.351 E10.60584
G1 X125.027 Y93.75 E10.62567
G1 X125.375 Y94.078 E10.64158
G1 X125.755 Y94.454 E10.65936
G1 X126.478 Y95.224 E10.69449
G1 X126.824 Y95.62 E10.71198
G1 X127.246 Y96.129 E10.73397
G1 X127.569 Y96.539 E10.75133
G1 X127.907 Y96.992 E10.77013
G1 X128.501 Y97.852 E10.80489
G1 X128.771 Y98.274 E10.82156
G1 X129.054 Y98.741 E10.83972
G1 X129.295 Y99.161 E10.85582
G1 X129.612 Y99.745 E10.87792
G1 X129.848 Y100.206 E10.89515
G1 X130.085 Y100.701 E10.9134
G1 X130.485 Y101.62 E10.94674
G1 X130.677 Y102.108 E10.96418
G1 X130.909 Y102.747 E10.98679
G1 X131.23 Y103.746 E11.02169
G1 X131.49 Y104.704 E11.05471
G1 X131.615 Y105.245 E11.07318
G1 X131.754 Y105.934 E11.09655
G1 X131.915 Y106.912 E11.12952
G1 X131.982 Y107.434 E11.14702
G1 X132.044 Y108.042 E11.16735
G1 X132.081 Y108.51 E11.18297
G1 X132.129 Y109.556 E11.21779
G1 X132.134 Y110.085 E11.23539
G1 X132.127 Y110.571 E11.25155
G1 X132.105 Y111.146 E11.27069
G1 X132.032 Y112.119 E11.30315
G1 X131.98 Y112.596 E11.3191
G1 X131.887 Y113.291 E11.34243
G1 X131.802 Y113.819 E11.36021
G1 X131.699 Y114.368 E11.37879
G1 X131.59 Y114.878 E11.39614
G1 X131.448 Y115.467 E11.41629
G1 X131.166 Y116.474 E11.45107
G1 X131.009 Y116.966 E11.46825
G1 X130.815 Y117.525 E11.48793
G1 X130.433 Y118.509 E11.52304
