;FLAVOR:Marlin
;TIME:4310
;Filament used: 2.08807m
;Layer height: 0.2
;MINX:86.531
;MINY:86.531
;MINZ:0.2
;MAXX:133.469
;MAXY:133.469
;MAXZ:74
;Generated with Cura_SteamEngine 5.4.0
M82 ;absolute extrusion mode
; Ender 3 Custom Start G-code
G92 E0 ; Reset Extruder
G28 ; Home all axes
M104 S175 ; Start heating up the nozzle most of the way
M190 S60 ; Start heating the bed, wait until target temperature reached
M109 S200 ; Finish heating the nozzle
G1 Z2.0 F3000 ; Move Z Axis up little to prevent scratching of Heat Bed
G1 X0.1 Y20 Z0.3 F5000.0 ; Move to start position
G1 X0.1 Y200.0 Z0.3 F1500.0 E15 ; Draw the first line
G1 X0.4 Y200.0 Z0.3 F5000.0 ; Move to side a little
G1 X0.4 Y20 Z0.3 F1500.0 E30 ; Draw the second line
G92 E0 ; Reset Extruder
G1 Z2.0 F3000 ; Move Z Axis up little to prevent scratching of Heat Bed
G1 X5 Y20 Z0.3 F5000.0 ; Move over to prevent blob squish
G92 E0
G92 E0
G1 F1500 E-6.5
;LAYER_COUNT:370
;LAYER:0
M107
G0 F6000 X93.364 Y93.444 Z0.2
;TYPE:SKIRT
G1 F1500 E0
G1 F1200 X93.729 Y93.088 E0.01696
G1 X94.261 Y92.59 E0.0412
G1 X94.685 Y92.217 E0.05998
G1 X95.191 Y91.792 E0.08196
G1 X95.615 Y91.455 E0.09997
G1 X96.117 Y91.076 E0.12089
G1 X96.535 Y90.777 E0.13798
G1 X97.04 Y90.432 E0.15833
G1 X97.464 Y90.158 E0.17512
G1 X97.962 Y89.852 E0.19456
G1 X98.403 Y89.596 E0.21152
G1 X98.993 Y89.273 E0.23389
G1 X99.45 Y89.037 E0.251
G1 X100.016 Y88.76 E0.27196
G1 X100.519 Y88.531 E0.29034
G1 X101.119 Y88.276 E0.31202
G1 X101.642 Y88.07 E0.33072
G1 X102.305 Y87.829 E0.35418
G1 X103.292 Y87.511 E0.38867
G1 X103.755 Y87.377 E0.4047
G1 X104.379 Y87.214 E0.42615
G1 X104.92 Y87.086 E0.44464
G1 X106.036 Y86.868 E0.48246
G1 X106.671 Y86.767 E0.50385
G1 X107.188 Y86.699 E0.52119
G1 X107.816 Y86.632 E0.5422
G1 X108.913 Y86.555 E0.57877
G1 X109.44 Y86.537 E0.59631
G1 X110.095 Y86.531 E0.6181
G1 X110.591 Y86.538 E0.6346
G1 X111.227 Y86.563 E0.65577
G1 X111.761 Y86.598 E0.67357
G1 X112.403 Y86.654 E0.695
G1 X112.931 Y86.714 E0.71267
G1 X113.539 Y86.798 E0.73309
G1 X114.03 Y86.879 E0.74964
G1 X114.646 Y86.995 E0.77049
G1 X115.164 Y87.105 E0.7881
G1 X115.776 Y87.252 E0.80903
G1 X116.298 Y87.391 E0.827
G1 X116.918 Y87.574 E0.8485
G1 X117.392 Y87.726 E0.86506
G1 X118.004 Y87.938 E0.8866
G1 X118.52 Y88.131 E0.90492
G1 X119.109 Y88.371 E0.92608
G1 X120.101 Y88.816 E0.96224
G1 X120.579 Y89.049 E0.97993
G1 X121.162 Y89.354 E1.00181
G1 X121.635 Y89.617 E1.01981
G1 X122.191 Y89.945 E1.04128
G1 X122.621 Y90.212 E1.05812
G1 X123.128 Y90.546 E1.07831
G1 X124.006 Y91.167 E1.11408
G1 X124.439 Y91.496 E1.13216
G1 X124.929 Y91.89 E1.15308
G1 X125.342 Y92.24 E1.17108
G1 X126.183 Y93.002 E1.20883
G1 X126.556 Y93.366 E1.22616
G1 X126.927 Y93.746 E1.24383
G1 X127.421 Y94.278 E1.26797
G1 X127.776 Y94.678 E1.28576
G1 X128.201 Y95.183 E1.30771
G1 X128.541 Y95.611 E1.32589
G1 X128.919 Y96.111 E1.34674
G1 X129.225 Y96.537 E1.36419
G1 X129.564 Y97.036 E1.38425
G1 X129.846 Y97.473 E1.40155
G1 X130.196 Y98.046 E1.42388
G1 X130.447 Y98.479 E1.44053
G1 X130.732 Y99 E1.46028
G1 X130.975 Y99.47 E1.47788
G1 X131.249 Y100.035 E1.49876
G1 X131.469 Y100.519 E1.51645
G1 X131.727 Y101.126 E1.53838
G1 X132.124 Y102.169 E1.5755
G1 X132.298 Y102.672 E1.5932
G1 X132.473 Y103.228 E1.61259
G1 X132.616 Y103.729 E1.62992
G1 X132.781 Y104.361 E1.65164
G1 X132.902 Y104.875 E1.66921
G1 X133.035 Y105.508 E1.69072
G1 X133.133 Y106.039 E1.70868
G1 X133.234 Y106.675 E1.7301
G1 X133.301 Y107.186 E1.74724
G1 X133.367 Y107.804 E1.76791
G1 X133.444 Y108.896 E1.80432
G1 X133.463 Y109.436 E1.82229
G1 X133.469 Y110.097 E1.84428
G1 X133.462 Y110.598 E1.86094
G1 X133.437 Y111.222 E1.88172
G1 X133.404 Y111.739 E1.89895
G1 X133.348 Y112.38 E1.92035
G1 X133.287 Y112.926 E1.93862
G1 X133.124 Y114.012 E1.97515
G1 X133.009 Y114.63 E1.99605
G1 X132.893 Y115.178 E2.01468
G1 X132.744 Y115.794 E2.03576
G1 X132.613 Y116.284 E2.05263
G1 X132.432 Y116.901 E2.07402
G1 X132.276 Y117.392 E2.09115
G1 X132.08 Y117.96 E2.11114
G1 X131.892 Y118.462 E2.12897
G1 X131.641 Y119.083 E2.15125
G1 X131.433 Y119.563 E2.16865
G1 X131.178 Y120.116 E2.1889
G1 X130.951 Y120.577 E2.20599
G1 X130.645 Y121.162 E2.22795
G1 X130.385 Y121.631 E2.24578
G1 X130.058 Y122.186 E2.26721
G1 X129.788 Y122.621 E2.28424
G1 X129.454 Y123.128 E2.30443
G1 X128.833 Y124.006 E2.3402
G1 X128.504 Y124.439 E2.35829
G1 X128.11 Y124.929 E2.3792
G1 X127.76 Y125.342 E2.39721
G1 X126.998 Y126.183 E2.43495
G1 X126.634 Y126.556 E2.45229
G1 X126.254 Y126.927 E2.46995
G1 X125.722 Y127.422 E2.49412
G1 X125.322 Y127.775 E2.51186
G1 X124.818 Y128.199 E2.53377
G1 X124.386 Y128.544 E2.55216
G1 X123.887 Y128.921 E2.57296
G1 X123.466 Y129.223 E2.59019
G1 X122.96 Y129.567 E2.61054
G1 X122.514 Y129.854 E2.62818
G1 X121.938 Y130.206 E2.65063
G1 X121.489 Y130.466 E2.66789
G1 X120.976 Y130.746 E2.68733
G1 X120.537 Y130.972 E2.70375
G1 X119.972 Y131.246 E2.72464
G1 X119.492 Y131.465 E2.74218
G1 X118.89 Y131.721 E2.76394
G1 X118.389 Y131.918 E2.78185
G1 X117.78 Y132.143 E2.80344
G1 X117.295 Y132.308 E2.82048
G1 X116.72 Y132.488 E2.84052
G1 X116.225 Y132.629 E2.85764
G1 X115.629 Y132.784 E2.87812
G1 X115.115 Y132.906 E2.89569
G1 X114.498 Y133.035 E2.91666
G1 X113.964 Y133.132 E2.93471
G1 X113.329 Y133.233 E2.95609
G1 X112.812 Y133.301 E2.97344
G1 X112.184 Y133.368 E2.99444
G1 X111.087 Y133.445 E3.03102
G1 X110.56 Y133.463 E3.04856
G1 X109.905 Y133.469 E3.07034
G1 X109.409 Y133.462 E3.08684
G1 X108.773 Y133.437 E3.10801
G1 X108.239 Y133.402 E3.12581
G1 X107.597 Y133.346 E3.14724
G1 X107.061 Y133.286 E3.16518
G1 X105.988 Y133.124 E3.20128
G1 X105.37 Y133.009 E3.22218
G1 X104.822 Y132.893 E3.24081
G1 X104.205 Y132.743 E3.26193
G1 X103.714 Y132.612 E3.27884
G1 X103.087 Y132.428 E3.30057
G1 X102.592 Y132.271 E3.31784
G1 X102.031 Y132.077 E3.33758
G1 X101.533 Y131.89 E3.35528
G1 X100.915 Y131.64 E3.37745
G1 X100.435 Y131.432 E3.39485
G1 X99.88 Y131.176 E3.41518
G1 X99.427 Y130.953 E3.43197
G1 X98.843 Y130.648 E3.45388
G1 X98.361 Y130.381 E3.47221
G1 X97.807 Y130.054 E3.49361
G1 X97.379 Y129.788 E3.51037
G1 X96.872 Y129.454 E3.53056
G1 X95.994 Y128.833 E3.56633
G1 X95.561 Y128.504 E3.58442
G1 X95.064 Y128.104 E3.60564
G1 X94.662 Y127.764 E3.62315
G1 X94.159 Y127.316 E3.64555
G1 X93.425 Y126.616 E3.67929
G1 X93.069 Y126.251 E3.69624
G1 X92.58 Y125.725 E3.72013
G1 X92.225 Y125.323 E3.73797
G1 X91.799 Y124.817 E3.75997
G1 X91.458 Y124.388 E3.7782
G1 X91.08 Y123.888 E3.79904
G1 X90.773 Y123.461 E3.81654
G1 X90.43 Y122.955 E3.83687
G1 X90.146 Y122.514 E3.85431
G1 X89.794 Y121.938 E3.87677
G1 X89.534 Y121.489 E3.89402
G1 X89.254 Y120.976 E3.91346
G1 X89.028 Y120.537 E3.92988
G1 X88.754 Y119.972 E3.95077
G1 X88.535 Y119.491 E3.96835
G1 X88.277 Y118.882 E3.99034
G1 X87.892 Y117.879 E4.02608
G1 X87.716 Y117.367 E4.04409
G1 X87.519 Y116.739 E4.06598
G1 X87.37 Y116.222 E4.08387
G1 X87.213 Y115.616 E4.10469
G1 X87.097 Y115.122 E4.12157
G1 X86.962 Y114.485 E4.14323
G1 X86.867 Y113.957 E4.16107
G1 X86.699 Y112.816 E4.19943
G1 X86.632 Y112.19 E4.22037
G1 X86.555 Y111.087 E4.25714
G1 X86.537 Y110.561 E4.27465
G1 X86.531 Y109.903 E4.29654
G1 X86.539 Y109.398 E4.31333
G1 X86.565 Y108.754 E4.33477
G1 X86.599 Y108.226 E4.35237
G1 X86.655 Y107.596 E4.37341
G1 X86.713 Y107.079 E4.39071
G1 X86.795 Y106.482 E4.41075
G1 X86.878 Y105.975 E4.42784
G1 X86.996 Y105.348 E4.44906
G1 X87.109 Y104.825 E4.46686
G1 X87.384 Y103.728 E4.50447
G1 X87.567 Y103.101 E4.5262
G1 X87.731 Y102.585 E4.5442
G1 X87.926 Y102.026 E4.56389
G1 X88.112 Y101.53 E4.58151
G1 X88.366 Y100.904 E4.60398
G1 X88.816 Y99.899 E4.64061
G1 X89.049 Y99.422 E4.65826
G1 X89.356 Y98.835 E4.6803
G1 X89.622 Y98.357 E4.69849
G1 X89.947 Y97.805 E4.7198
G1 X90.212 Y97.379 E4.73648
G1 X90.545 Y96.872 E4.75666
G1 X91.167 Y95.994 E4.79245
G1 X91.479 Y95.583 E4.80961
G1 X91.871 Y95.092 E4.8305
G1 X92.255 Y94.639 E4.85026
G1 X93.001 Y93.817 E4.88718
G1 X93.364 Y93.444 E4.90449
G0 F6000 X93.644 Y93.73
G1 F1200 X94.002 Y93.38 E4.92114
G1 X94.526 Y92.89 E4.945
G1 X94.942 Y92.523 E4.96345
G1 X95.44 Y92.105 E4.98508
G1 X95.856 Y91.774 E5.00276
G1 X96.35 Y91.401 E5.02335
G1 X96.76 Y91.107 E5.04013
G1 X97.257 Y90.768 E5.06014
G1 X97.673 Y90.499 E5.07661
G1 X98.163 Y90.198 E5.09574
G1 X98.595 Y89.947 E5.11236
G1 X99.177 Y89.628 E5.13443
G1 X99.626 Y89.396 E5.15124
G1 X100.182 Y89.124 E5.17183
G1 X100.675 Y88.899 E5.18985
G1 X101.266 Y88.648 E5.21121
G1 X101.779 Y88.446 E5.22955
G1 X102.428 Y88.21 E5.25252
G1 X103.403 Y87.895 E5.28659
G1 X103.856 Y87.764 E5.30228
G1 X104.471 Y87.603 E5.32342
G1 X105.001 Y87.478 E5.34153
G1 X105.607 Y87.353 E5.36211
G1 X106.099 Y87.263 E5.37875
G1 X106.723 Y87.164 E5.39976
G1 X107.231 Y87.097 E5.41681
G1 X107.844 Y87.031 E5.43731
G1 X108.927 Y86.955 E5.47342
G1 X109.444 Y86.937 E5.49063
G1 X110.089 Y86.931 E5.51208
G1 X110.576 Y86.938 E5.52828
G1 X111.201 Y86.962 E5.54908
G1 X111.726 Y86.996 E5.56658
G1 X112.358 Y87.051 E5.58768
G1 X112.876 Y87.11 E5.60502
G1 X113.474 Y87.193 E5.6251
G1 X113.956 Y87.272 E5.64135
G1 X114.563 Y87.386 E5.66189
G1 X115.07 Y87.494 E5.67913
G1 X115.673 Y87.639 E5.69976
G1 X116.185 Y87.775 E5.71738
G1 X116.796 Y87.955 E5.73856
G1 X117.261 Y88.104 E5.7548
G1 X117.863 Y88.312 E5.77599
G1 X118.369 Y88.502 E5.79396
G1 X118.945 Y88.736 E5.81464
G1 X119.925 Y89.175 E5.85036
G1 X120.394 Y89.404 E5.86772
G1 X120.968 Y89.704 E5.88926
G1 X121.432 Y89.962 E5.90692
G1 X121.98 Y90.285 E5.92807
G1 X122.401 Y90.546 E5.94455
G1 X122.897 Y90.872 E5.96429
G1 X123.764 Y91.486 E5.99963
G1 X124.188 Y91.808 E6.01733
G1 X124.678 Y92.202 E6.03825
G1 X125.074 Y92.537 E6.0555
G1 X125.904 Y93.288 E6.09273
G1 X126.27 Y93.645 E6.10973
G1 X126.634 Y94.018 E6.12707
G1 X127.122 Y94.543 E6.15091
G1 X127.47 Y94.936 E6.16837
G1 X127.888 Y95.432 E6.18994
G1 X128.222 Y95.852 E6.20779
G1 X128.594 Y96.344 E6.2283
G1 X128.894 Y96.762 E6.24542
G1 X129.228 Y97.253 E6.26517
G1 X129.505 Y97.682 E6.28215
G1 X129.85 Y98.246 E6.30414
G1 X130.096 Y98.671 E6.32047
G1 X130.377 Y99.184 E6.33993
G1 X130.615 Y99.644 E6.35716
G1 X130.885 Y100.201 E6.37774
G1 X131.101 Y100.676 E6.3951
G1 X131.353 Y101.268 E6.4165
G1 X131.746 Y102.3 E6.45323
G1 X131.916 Y102.792 E6.47054
G1 X132.088 Y103.338 E6.48958
G1 X132.229 Y103.83 E6.5066
G1 X132.392 Y104.453 E6.52802
G1 X132.511 Y104.957 E6.54525
G1 X132.642 Y105.58 E6.56642
G1 X132.738 Y106.101 E6.58404
G1 X132.837 Y106.727 E6.60512
G1 X132.903 Y107.229 E6.62196
G1 X132.968 Y107.832 E6.64213
G1 X133.044 Y108.91 E6.67808
G1 X133.063 Y109.44 E6.69571
G1 X133.069 Y110.091 E6.71737
G1 X133.062 Y110.582 E6.7337
G1 X133.038 Y111.197 E6.75417
G1 X133.006 Y111.704 E6.77107
G1 X132.951 Y112.335 E6.79213
G1 X132.891 Y112.867 E6.80994
G1 X132.731 Y113.939 E6.84599
G1 X132.618 Y114.547 E6.86656
G1 X132.504 Y115.084 E6.88482
G1 X132.357 Y115.691 E6.90559
G1 X132.229 Y116.172 E6.92214
G1 X132.051 Y116.78 E6.94322
G1 X131.898 Y117.261 E6.96
G1 X131.705 Y117.82 E6.97967
G1 X131.521 Y118.312 E6.99714
G1 X131.274 Y118.924 E7.01909
G1 X131.07 Y119.395 E7.03617
G1 X130.819 Y119.939 E7.05609
G1 X130.596 Y120.392 E7.07289
G1 X130.295 Y120.968 E7.0945
G1 X130.04 Y121.428 E7.112
G1 X129.718 Y121.975 E7.13311
G1 X129.454 Y122.401 E7.14978
G1 X129.128 Y122.897 E7.16952
G1 X128.514 Y123.764 E7.20485
G1 X128.192 Y124.188 E7.22256
G1 X127.798 Y124.678 E7.24347
G1 X127.463 Y125.074 E7.26073
G1 X126.712 Y125.904 E7.29795
G1 X126.355 Y126.27 E7.31496
G1 X125.982 Y126.634 E7.33229
G1 X125.457 Y127.122 E7.35613
G1 X125.065 Y127.469 E7.37355
G1 X124.568 Y127.887 E7.39515
G1 X124.145 Y128.225 E7.41315
G1 X123.654 Y128.596 E7.43362
G1 X123.241 Y128.892 E7.45052
G1 X122.743 Y129.231 E7.47056
G1 X122.305 Y129.513 E7.48789
G1 X121.737 Y129.86 E7.51002
G1 X121.297 Y130.115 E7.52694
G1 X120.793 Y130.39 E7.54604
G1 X120.362 Y130.612 E7.56216
G1 X119.806 Y130.882 E7.58272
G1 X119.335 Y131.097 E7.59994
G1 X118.743 Y131.349 E7.62134
G1 X118.251 Y131.543 E7.63893
G1 X117.651 Y131.764 E7.6602
G1 X117.175 Y131.926 E7.67692
G1 X116.61 Y132.103 E7.69661
G1 X116.124 Y132.242 E7.71342
G1 X115.537 Y132.395 E7.7336
G1 X115.033 Y132.514 E7.75082
G1 X114.416 Y132.643 E7.77179
G1 X113.901 Y132.737 E7.7892
G1 X113.277 Y132.836 E7.81021
G1 X112.769 Y132.903 E7.82726
G1 X112.156 Y132.969 E7.84776
G1 X111.073 Y133.045 E7.88387
G1 X110.556 Y133.063 E7.90108
G1 X109.911 Y133.069 E7.92253
G1 X109.424 Y133.062 E7.93873
G1 X108.799 Y133.038 E7.95953
G1 X108.274 Y133.004 E7.97703
G1 X107.642 Y132.949 E7.99813
G1 X107.12 Y132.89 E8.01561
G1 X106.061 Y132.731 E8.05122
G1 X105.453 Y132.618 E8.07179
G1 X104.916 Y132.504 E8.09005
G1 X104.308 Y132.357 E8.11085
G1 X103.826 Y132.228 E8.12745
G1 X103.208 Y132.047 E8.14887
G1 X102.723 Y131.893 E8.16579
G1 X102.171 Y131.702 E8.18522
G1 X101.683 Y131.519 E8.20256
G1 X101.074 Y131.273 E8.2244
G1 X100.603 Y131.069 E8.24147
G1 X100.057 Y130.817 E8.26147
G1 X99.612 Y130.598 E8.27797
G1 X99.037 Y130.298 E8.29954
G1 X98.564 Y130.036 E8.31752
G1 X98.018 Y129.714 E8.33861
G1 X97.599 Y129.454 E8.35501
G1 X97.103 Y129.128 E8.37475
G1 X96.236 Y128.514 E8.41009
G1 X95.812 Y128.192 E8.42779
G1 X95.322 Y127.798 E8.44871
G1 X94.928 Y127.465 E8.46586
G1 X94.435 Y127.026 E8.48782
G1 X93.711 Y126.336 E8.52108
G1 X93.362 Y125.979 E8.53769
G1 X92.88 Y125.461 E8.56122
G1 X92.531 Y125.065 E8.57878
G1 X92.112 Y124.568 E8.6004
G1 X91.777 Y124.147 E8.6183
G1 X91.405 Y123.655 E8.63881
G1 X91.104 Y123.236 E8.65597
G1 X90.766 Y122.739 E8.67596
G1 X90.487 Y122.305 E8.69312
G1 X90.14 Y121.737 E8.71526
G1 X89.885 Y121.297 E8.73217
G1 X89.61 Y120.793 E8.75127
G1 X89.388 Y120.362 E8.76739
G1 X89.118 Y119.806 E8.78795
G1 X88.903 Y119.335 E8.80517
G1 X88.65 Y118.739 E8.82671
G1 X88.27 Y117.75 E8.86195
G1 X88.098 Y117.247 E8.87963
G1 X87.903 Y116.628 E8.90121
G1 X87.757 Y116.121 E8.91876
G1 X87.602 Y115.524 E8.93928
G1 X87.488 Y115.039 E8.95585
G1 X87.356 Y114.414 E8.97709
G1 X87.263 Y113.899 E8.9945
G1 X87.097 Y112.773 E9.03235
G1 X87.031 Y112.162 E9.05279
G1 X86.955 Y111.073 E9.0891
G1 X86.937 Y110.557 E9.10628
G1 X86.931 Y109.909 E9.12783
G1 X86.939 Y109.414 E9.14429
G1 X86.964 Y108.779 E9.16543
G1 X86.997 Y108.261 E9.1827
G1 X87.052 Y107.641 E9.2034
G1 X87.109 Y107.134 E9.22037
G1 X87.19 Y106.546 E9.24011
G1 X87.271 Y106.049 E9.25686
G1 X87.387 Y105.432 E9.27774
G1 X87.497 Y104.922 E9.29509
G1 X87.768 Y103.84 E9.33219
G1 X87.948 Y103.222 E9.3536
G1 X88.109 Y102.716 E9.37126
G1 X88.3 Y102.167 E9.39059
G1 X88.483 Y101.68 E9.4079
G1 X88.731 Y101.067 E9.42989
G1 X89.175 Y100.075 E9.46604
G1 X89.404 Y99.607 E9.48337
G1 X89.706 Y99.029 E9.50506
G1 X89.966 Y98.56 E9.52289
G1 X90.287 Y98.016 E9.5439
G1 X90.546 Y97.599 E9.56023
G1 X90.872 Y97.103 E9.57997
G1 X91.485 Y96.236 E9.61529
G1 X91.792 Y95.833 E9.63214
G1 X92.184 Y95.342 E9.65303
G1 X92.551 Y94.908 E9.67194
G1 X93.288 Y94.096 E9.70841
G1 X93.644 Y93.73 E9.72539
G0 F6000 X93.924 Y94.016
G1 F1200 X94.275 Y93.672 E9.74174
G1 X94.791 Y93.19 E9.76522
G1 X95.199 Y92.829 E9.78334
G1 X95.689 Y92.418 E9.80461
G1 X96.097 Y92.093 E9.82196
G1 X96.583 Y91.726 E9.84222
G1 X96.985 Y91.438 E9.85867
G1 X97.475 Y91.104 E9.87839
G1 X97.882 Y90.84 E9.89453
G1 X98.364 Y90.544 E9.91334
G1 X98.788 Y90.298 E9.92964
G1 X99.361 Y89.983 E9.95139
G1 X99.801 Y89.755 E9.96787
G1 X100.348 Y89.488 E9.98812
G1 X100.831 Y89.267 E10.00578
G1 X101.412 Y89.02 E10.02678
G1 X101.916 Y88.822 E10.04479
G1 X102.551 Y88.591 E10.06727
G1 X103.514 Y88.279 E10.10094
G1 X103.958 Y88.151 E10.1163
G1 X104.563 Y87.992 E10.13711
G1 X105.082 Y87.87 E10.15484
G1 X105.679 Y87.746 E10.17512
G1 X106.161 Y87.658 E10.19142
G1 X106.775 Y87.561 E10.21209
G1 X107.274 Y87.495 E10.22884
G1 X107.877 Y87.43 E10.24901
G1 X108.367 Y87.389 E10.26536
G1 X108.941 Y87.355 E10.28449
G1 X109.448 Y87.337 E10.30136
G1 X110.083 Y87.331 E10.32248
G1 X110.561 Y87.338 E10.33838
G1 X111.175 Y87.361 E10.35882
G1 X111.691 Y87.394 E10.37601
G1 X112.313 Y87.449 E10.39678
G1 X112.821 Y87.506 E10.41379
G1 X113.41 Y87.588 E10.43356
G1 X113.882 Y87.665 E10.44947
G1 X114.48 Y87.777 E10.46971
G1 X114.977 Y87.883 E10.48661
G1 X115.57 Y88.025 E10.50689
G1 X116.072 Y88.159 E10.52417
G1 X116.674 Y88.336 E10.54504
G1 X117.13 Y88.482 E10.56097
G1 X117.723 Y88.687 E10.58183
