;FLAVOR:Marlin
;TIME:1486
;Filament used: 0.861942m
;Layer height: 0.2
;MINX:8.082
;MINY:49.185
;MINZ:0.2
;MAXX:211.228
;MAXY:163.126
;MAXZ:7.2
;Generated with Cura_SteamEngine 5.4.0
M82 ;absolute extrusion mode
; Ender 3 Custom Start G-code
G92 E0 ; Reset Extruder
G28 ; Home all axes
M104 S175 ; Start heating up the nozzle most of the way
M190 S60 ; Start heating the bed, wait until target temperature reached
M109 S200 ; Finish heating the nozzle
G1 Z2.0 F3000 ; Move Z Axis up little to prevent scratching of Heat Bed
G1 X0.1 Y20 Z0.3 F5000.0 ; Move to start position
G1 X0.1 Y200.0 Z0.3 F1500.0 E15 ; Draw the first line
G1 X0.4 Y200.0 Z0.3 F5000.0 ; Move to side a little
G1 X0.4 Y20 Z0.3 F1500.0 E30 ; Draw the second line
G92 E0 ; Reset Extruder
G1 Z2.0 F3000 ; Move Z Axis up little to prevent scratching of Heat Bed
G1 X5 Y20 Z0.3 F5000.0 ; Move over to prevent blob squish
G92 E0
G92 E0
G1 F1500 E-6.5
;LAYER_COUNT:36
;LAYER:0
M107
G0 F6000 X17.856 Y51.531 Z0.2
;TYPE:SKIRT
G1 F1500 E0
G1 F1200 X19.308 Y51.027 E0.05112
G1 X20.211 Y50.732 E0.08272
G1 X20.661 Y50.597 E0.09834
G1 X21.49 Y50.373 E0.1269
G1 X22.602 Y50.1 E0.16499
G1 X23.516 Y49.918 E0.19598
G1 X24.698 Y49.734 E0.23577
G1 X26.109 Y49.55 E0.2831
G1 X27.264 Y49.433 E0.32171
G1 X28.931 Y49.295 E0.37734
G1 X30.497 Y49.198 E0.42953
G1 X31.514 Y49.185 E0.46336
G1 X32.25 Y49.217 E0.48786
G1 X33.774 Y49.318 E0.53866
G1 X34.754 Y49.43 E0.57147
G1 X35.981 Y49.7 E0.61325
G1 X37.305 Y50.081 E0.65908
G1 X38.158 Y50.353 E0.68886
G1 X39.307 Y50.796 E0.72981
G1 X40.487 Y51.337 E0.77299
G1 X44.694 Y53.413 E0.92902
G1 X46.984 Y54.464 E1.01283
G1 X49.306 Y55.448 E1.09671
G1 X51.66 Y56.369 E1.18078
G1 X54.009 Y57.212 E1.26379
G1 X56.434 Y58.006 E1.34866
G1 X58.81 Y58.71 E1.43108
G1 X61.267 Y59.364 E1.51564
G1 X63.899 Y59.981 E1.60556
G1 X77.122 Y62.879 E2.05579
G1 X201.79 Y90.08 E6.29982
G1 X202.694 Y90.292 E6.3307
G1 X203.629 Y90.559 E6.36304
G1 X204.54 Y90.907 E6.39548
G1 X205.352 Y91.301 E6.4255
G1 X206.247 Y91.837 E6.4602
G1 X206.978 Y92.368 E6.49025
G1 X207.765 Y93.056 E6.52501
G1 X208.415 Y93.734 E6.55625
G1 X209.045 Y94.522 E6.58981
G1 X209.582 Y95.333 E6.62216
G1 X210.047 Y96.189 E6.65456
G1 X210.408 Y97.017 E6.6846
G1 X210.738 Y98.009 E6.71938
G1 X210.961 Y98.957 E6.75177
G1 X211.1 Y99.932 E6.78452
G1 X211.151 Y101.169 E6.8257
G1 X211.138 Y101.991 E6.85304
G1 X211.133 Y104.537 E6.93772
G1 X211.194 Y106.423 E7.00049
G1 X211.228 Y107.872 E7.04869
G1 X211.206 Y108.844 E7.08103
G1 X211.108 Y109.742 E7.11108
G1 X210.903 Y110.768 E7.14587
G1 X210.648 Y111.634 E7.1759
G1 X210.266 Y112.607 E7.21067
G1 X209.845 Y113.446 E7.24189
G1 X209.314 Y114.305 E7.27548
G1 X208.73 Y115.083 E7.30783
G1 X208.079 Y115.808 E7.34024
G1 X207.366 Y116.472 E7.37265
G1 X206.599 Y117.071 E7.40501
G1 X205.841 Y117.563 E7.43507
G1 X204.918 Y118.052 E7.46981
G1 X204.021 Y118.427 E7.50215
G1 X203.139 Y118.71 E7.53296
G1 X202.53 Y118.87 E7.5539
G1 X77.849 Y148.575 E11.81688
G1 X64.807 Y151.695 E12.2629
G1 X62.319 Y152.328 E12.34828
G1 X59.86 Y153.027 E12.43331
G1 X57.454 Y153.787 E12.51723
G1 X55.109 Y154.599 E12.59977
G1 X52.76 Y155.488 E12.68331
G1 X50.398 Y156.461 E12.76827
G1 X48.145 Y157.464 E12.8503
G1 X45.837 Y158.571 E12.93543
G1 X41.794 Y160.662 E13.08682
G1 X40.538 Y161.278 E13.13335
G1 X39.341 Y161.776 E13.17647
G1 X38.47 Y162.077 E13.20712
G1 X37.268 Y162.46 E13.24908
G1 X36.355 Y162.703 E13.28051
G1 X35.065 Y162.908 E13.32395
G1 X33.698 Y163.038 E13.36962
G1 X32.75 Y163.103 E13.40123
G1 X31.836 Y163.126 E13.43164
G1 X31.123 Y163.106 E13.45536
G1 X30.004 Y163.05 E13.49262
G1 X28.297 Y162.938 E13.54952
G1 X26.409 Y162.769 E13.61257
G1 X25.216 Y162.619 E13.65256
G1 X24.468 Y162.51 E13.6777
G1 X23.651 Y162.36 E13.70533
G1 X22.492 Y162.096 E13.74486
G1 X21.303 Y161.79 E13.7857
G1 X20.58 Y161.569 E13.81084
G1 X18.619 Y160.927 E13.87947
G1 X17.455 Y160.517 E13.92052
G1 X16.626 Y160.199 E13.95005
G1 X15.484 Y159.674 E13.99186
G1 X15.007 Y159.418 E14.00986
G1 X14.17 Y158.92 E14.04226
G1 X13.408 Y158.37 E14.07351
G1 X12.672 Y157.734 E14.10587
G1 X11.97 Y157.007 E14.13948
G1 X11.351 Y156.239 E14.17229
G1 X10.613 Y155.101 E14.2174
G1 X10.101 Y154.102 E14.25474
G1 X9.713 Y153.132 E14.28948
G1 X9.459 Y152.293 E14.31864
G1 X9.308 Y151.706 E14.3388
G1 X9.154 Y151.032 E14.36179
G1 X8.987 Y150.072 E14.3942
G1 X8.91 Y149.172 E14.42425
G1 X8.901 Y148.363 E14.45116
G1 X8.957 Y147.34 E14.48523
G1 X9.098 Y146.376 E14.51764
G1 X9.322 Y145.43 E14.54997
G1 X9.604 Y144.572 E14.58001
G1 X9.823 Y144.035 E14.5993
G1 X10.478 Y142.537 E14.65368
G1 X11.476 Y140.13 E14.74034
G1 X12.367 Y137.803 E14.82322
G1 X13.21 Y135.406 E14.90773
G1 X13.98 Y132.995 E14.99191
G1 X14.669 Y130.612 E15.07441
G1 X15.302 Y128.158 E15.15871
G1 X15.863 Y125.697 E15.24266
G1 X16.355 Y123.219 E15.32669
G1 X16.774 Y120.746 E15.41011
G1 X17.116 Y118.305 E15.49209
G1 X17.399 Y115.772 E15.57686
G1 X17.611 Y113.246 E15.66117
G1 X17.746 Y110.743 E15.74455
G1 X17.813 Y108.236 E15.82796
G1 X17.808 Y105.691 E15.91261
G1 X17.733 Y103.215 E15.995
G1 X17.585 Y100.686 E16.07925
G1 X17.367 Y98.152 E16.16385
G1 X17.083 Y95.707 E16.24571
G1 X16.718 Y93.17 E16.33096
G1 X16.288 Y90.688 E16.41475
G1 X15.799 Y88.275 E16.49663
G1 X15.221 Y85.78 E16.58182
G1 X14.584 Y83.353 E16.66527
G1 X13.876 Y80.935 E16.74907
G1 X13.104 Y78.549 E16.83248
G1 X12.25 Y76.143 E16.9174
G1 X11.354 Y73.831 E16.99987
G1 X10.372 Y71.495 E17.08415
G1 X9.073 Y68.648 E17.18823
G1 X8.71 Y67.743 E17.22066
G1 X8.438 Y66.845 E17.25187
G1 X8.239 Y65.892 E17.28425
G1 X8.106 Y64.741 E17.32279
G1 X8.082 Y63.657 E17.35885
G1 X8.147 Y62.687 E17.39119
G1 X8.287 Y61.769 E17.42207
G1 X8.41 Y61.145 E17.44322
G1 X8.56 Y60.478 E17.46596
G1 X8.826 Y59.54 E17.49839
G1 X9.171 Y58.639 E17.53048
G1 X9.5 Y57.942 E17.55612
G1 X9.962 Y57.106 E17.58788
G1 X10.548 Y56.239 E17.62269
G1 X11.141 Y55.513 E17.65387
G1 X11.846 Y54.79 E17.68746
G1 X12.6 Y54.148 E17.72039
G1 X13.732 Y53.372 E17.76604
G1 X14.185 Y53.103 E17.78356
G1 X15.023 Y52.654 E17.81518
G1 X15.617 Y52.39 E17.8368
G1 X16.431 Y52.061 E17.86601
G1 X17.856 Y51.531 E17.91657
G0 F6000 X17.987 Y51.909
G1 F1200 X19.432 Y51.407 E17.96745
G1 X20.326 Y51.115 E17.99873
G1 X20.765 Y50.983 E18.01398
G1 X21.586 Y50.761 E18.04227
G1 X22.68 Y50.492 E18.07974
G1 X23.577 Y50.313 E18.11016
G1 X24.75 Y50.131 E18.14964
G1 X26.149 Y49.948 E18.19657
G1 X27.297 Y49.832 E18.23494
G1 X28.956 Y49.694 E18.29031
G1 X30.502 Y49.598 E18.34183
G1 X31.497 Y49.585 E18.37493
G1 X32.224 Y49.616 E18.39913
G1 X33.729 Y49.715 E18.4493
G1 X34.668 Y49.821 E18.48073
G1 X35.895 Y50.091 E18.52251
G1 X37.184 Y50.462 E18.56713
G1 X38.014 Y50.726 E18.59609
G1 X39.163 Y51.169 E18.63705
G1 X40.31 Y51.696 E18.67904
G1 X44.527 Y53.777 E18.83544
G1 X46.817 Y54.827 E18.91923
G1 X49.153 Y55.817 E19.00362
G1 X51.516 Y56.742 E19.08802
G1 X53.884 Y57.592 E19.1717
G1 X56.32 Y58.39 E19.25696
G1 X58.699 Y59.095 E19.33948
G1 X61.164 Y59.75 E19.42431
G1 X63.813 Y60.372 E19.51482
G1 X77.036 Y63.27 E19.96505
G1 X201.699 Y90.47 E24.20891
G1 X202.585 Y90.677 E24.23917
G1 X203.487 Y90.933 E24.27036
G1 X204.365 Y91.267 E24.3016
G1 X205.177 Y91.661 E24.33162
G1 X206.012 Y92.161 E24.36399
G1 X206.743 Y92.692 E24.39404
G1 X207.476 Y93.333 E24.42643
G1 X208.126 Y94.011 E24.45767
G1 X208.712 Y94.743 E24.48885
G1 X209.231 Y95.524 E24.52004
G1 X209.68 Y96.349 E24.55128
G1 X210.041 Y97.177 E24.58133
G1 X210.349 Y98.101 E24.61372
G1 X210.565 Y99.014 E24.64493
G1 X210.7 Y99.949 E24.67635
G1 X210.751 Y101.163 E24.71676
G1 X210.738 Y101.985 E24.7441
G1 X210.733 Y104.536 E24.82895
G1 X210.794 Y106.433 E24.89208
G1 X210.828 Y107.863 E24.93965
G1 X210.808 Y108.801 E24.97086
G1 X210.71 Y109.699 E25.0009
G1 X210.519 Y110.655 E25.03333
G1 X210.264 Y111.521 E25.06335
G1 X209.908 Y112.428 E25.09576
G1 X209.487 Y113.267 E25.12698
G1 X208.994 Y114.065 E25.15818
G1 X208.432 Y114.816 E25.18938
G1 X207.806 Y115.516 E25.22061
G1 X207.12 Y116.157 E25.25184
G1 X206.381 Y116.735 E25.28304
G1 X205.623 Y117.227 E25.3131
G1 X204.763 Y117.683 E25.34548
G1 X203.899 Y118.046 E25.37665
G1 X203.037 Y118.323 E25.40676
G1 X202.437 Y118.481 E25.4274
G1 X77.756 Y148.186 E29.69037
G1 X64.708 Y151.307 E30.13659
G1 X62.22 Y151.94 E30.22198
G1 X59.751 Y152.642 E30.30736
G1 X57.323 Y153.409 E30.39204
G1 X54.978 Y154.221 E30.47458
G1 X52.618 Y155.114 E30.55851
G1 X50.246 Y156.091 E30.64383
G1 X47.972 Y157.103 E30.72662
G1 X45.664 Y158.21 E30.81175
G1 X41.618 Y160.303 E30.96326
G1 X40.384 Y160.909 E31.00899
G1 X39.21 Y161.398 E31.05129
G1 X38.349 Y161.696 E31.08159
G1 X37.165 Y162.073 E31.12292
G1 X36.252 Y162.316 E31.15434
G1 X35.027 Y162.51 E31.1956
G1 X33.671 Y162.639 E31.2409
G1 X32.74 Y162.703 E31.27194
G1 X31.847 Y162.726 E31.30165
G1 X31.143 Y162.707 E31.32507
G1 X30.03 Y162.651 E31.36214
G1 X28.333 Y162.54 E31.4187
G1 X26.459 Y162.372 E31.48128
G1 X25.273 Y162.223 E31.52104
G1 X24.54 Y162.117 E31.54567
G1 X23.74 Y161.97 E31.57272
G1 X22.592 Y161.709 E31.61188
G1 X21.42 Y161.407 E31.65214
G1 X20.704 Y161.189 E31.67703
G1 X18.752 Y160.55 E31.74534
G1 X17.598 Y160.143 E31.78604
G1 X16.793 Y159.835 E31.81471
G1 X15.673 Y159.321 E31.8557
G1 X15.211 Y159.074 E31.87312
G1 X14.404 Y158.595 E31.90433
G1 X13.67 Y158.067 E31.93441
G1 X12.934 Y157.431 E31.96676
G1 X12.281 Y156.756 E31.998
G1 X11.687 Y156.021 E32.02943
G1 X10.949 Y154.883 E32.07454
G1 X10.457 Y153.92 E32.11051
G1 X10.096 Y153.016 E32.14288
G1 X9.842 Y152.177 E32.17204
G1 X9.698 Y151.616 E32.1913
G1 X9.548 Y150.963 E32.21359
G1 X9.386 Y150.038 E32.24482
G1 X9.309 Y149.138 E32.27487
G1 X9.301 Y148.359 E32.30078
G1 X9.353 Y147.397 E32.33282
G1 X9.487 Y146.468 E32.36404
G1 X9.702 Y145.555 E32.39524
G1 X9.984 Y144.697 E32.42527
G1 X10.189 Y144.195 E32.44331
G1 X10.844 Y142.697 E32.49769
G1 X11.85 Y140.273 E32.58498
G1 X12.741 Y137.946 E32.66785
G1 X13.587 Y135.539 E32.75271
G1 X14.361 Y133.117 E32.83728
G1 X15.053 Y130.723 E32.92017
G1 X15.689 Y128.258 E33.00484
G1 X16.253 Y125.786 E33.08917
G1 X16.747 Y123.297 E33.17357
G1 X17.168 Y120.813 E33.25736
G1 X17.514 Y118.349 E33.34012
G1 X17.797 Y115.816 E33.42489
G1 X18.009 Y113.279 E33.50957
G1 X18.146 Y110.754 E33.59367
G1 X18.213 Y108.247 E33.67709
G1 X18.208 Y105.69 E33.76213
G1 X18.133 Y103.203 E33.84489
G1 X17.984 Y100.652 E33.92988
G1 X17.765 Y98.118 E34.01448
G1 X17.479 Y95.65 E34.09711
G1 X17.114 Y93.113 E34.18236
G1 X16.682 Y90.62 E34.26651
G1 X16.189 Y88.185 E34.34915
G1 X15.611 Y85.69 E34.43433
G1 X14.971 Y83.251 E34.5182
G1 X14.257 Y80.812 E34.60272
G1 X13.485 Y78.426 E34.68613
G1 X12.627 Y76.009 E34.77143
G1 X11.727 Y73.686 E34.85429
G1 X10.741 Y71.34 E34.93893
G1 X9.444 Y68.499 E35.04281
G1 X9.093 Y67.627 E35.07407
G1 X8.83 Y66.763 E35.10411
G1 X8.631 Y65.81 E35.13649
G1 X8.506 Y64.731 E35.17262
G1 X8.481 Y63.683 E35.20749
G1 X8.542 Y62.747 E35.23868
G1 X8.679 Y61.846 E35.26899
G1 X8.8 Y61.233 E35.28978
G1 X8.945 Y60.587 E35.3118
G1 X9.2 Y59.683 E35.34304
G1 X9.533 Y58.81 E35.37411
G1 X9.862 Y58.113 E35.39975
G1 X10.312 Y57.3 E35.43066
G1 X10.858 Y56.492 E35.46309
G1 X11.451 Y55.766 E35.49427
G1 X12.106 Y55.094 E35.52548
G1 X12.826 Y54.478 E35.557
G1 X13.937 Y53.716 E35.6018
G1 X14.374 Y53.456 E35.61872
G1 X15.212 Y53.007 E35.65034
G1 X15.767 Y52.761 E35.67053
G1 X16.57 Y52.436 E35.69934
G1 X17.987 Y51.909 E35.74962
G0 F6000 X18.118 Y52.287
G1 F1200 X19.556 Y51.787 E35.80026
G1 X20.441 Y51.498 E35.83123
G1 X20.87 Y51.369 E35.84613
G1 X21.682 Y51.149 E35.87411
G1 X22.758 Y50.884 E35.91096
G1 X23.638 Y50.708 E35.94081
G1 X24.802 Y50.528 E35.97999
G1 X26.189 Y50.346 E36.02652
G1 X27.33 Y50.231 E36.06466
G1 X28.981 Y50.093 E36.11976
G1 X30.507 Y49.998 E36.17061
G1 X31.48 Y49.985 E36.20298
G1 X32.198 Y50.015 E36.22688
G1 X33.685 Y50.113 E36.27645
G1 X34.582 Y50.212 E36.30646
G1 X35.809 Y50.482 E36.34825
G1 X37.063 Y50.843 E36.39165
G1 X37.87 Y51.099 E36.41981
G1 X39.019 Y51.542 E36.46077
G1 X40.133 Y52.055 E36.50156
G1 X44.36 Y54.141 E36.65834
G1 X46.65 Y55.19 E36.74211
G1 X49 Y56.186 E36.82701
G1 X51.372 Y57.115 E36.91173
G1 X53.76 Y57.972 E36.99612
G1 X56.197 Y58.77 E37.08141
G1 X58.596 Y59.482 E37.16464
G1 X61.061 Y60.136 E37.24946
G1 X63.727 Y60.763 E37.34055
G1 X76.95 Y63.661 E37.79079
G1 X201.608 Y90.86 E42.03448
G1 X202.476 Y91.062 E42.06412
G1 X203.345 Y91.307 E42.09415
G1 X204.19 Y91.627 E42.1242
G1 X205.002 Y92.021 E42.15422
G1 X205.777 Y92.485 E42.18426
G1 X206.508 Y93.016 E42.21431
G1 X207.188 Y93.61 E42.24434
G1 X207.814 Y94.261 E42.27438
G1 X208.379 Y94.965 E42.30441
G1 X208.88 Y95.716 E42.33443
G1 X209.313 Y96.509 E42.36448
G1 X209.674 Y97.337 E42.39453
G1 X209.96 Y98.194 E42.42458
G1 X210.169 Y99.072 E42.45459
G1 X210.3 Y99.966 E42.48465
G1 X210.351 Y101.157 E42.52429
G1 X210.338 Y101.979 E42.55164
G1 X210.333 Y104.535 E42.63665
G1 X210.394 Y106.443 E42.70014
G1 X210.428 Y107.855 E42.74712
G1 X210.41 Y108.758 E42.77716
G1 X210.312 Y109.656 E42.80721
G1 X210.135 Y110.542 E42.83726
G1 X209.88 Y111.408 E42.86728
G1 X209.55 Y112.249 E42.89733
G1 X209.146 Y113.057 E42.92738
G1 X208.673 Y113.826 E42.9574
G1 X208.133 Y114.55 E42.98745
G1 X207.532 Y115.224 E43.01748
G1 X206.873 Y115.842 E43.04753
G1 X206.163 Y116.399 E43.07754
G1 X205.405 Y116.891 E43.1076
G1 X204.608 Y117.314 E43.13761
G1 X203.776 Y117.665 E43.16764
G1 X202.935 Y117.936 E43.19703
G1 X202.344 Y118.092 E43.21736
G1 X77.663 Y147.797 E47.48034
G1 X64.609 Y150.919 E47.92676
G1 X62.121 Y151.552 E48.01215
G1 X59.641 Y152.258 E48.09791
G1 X57.192 Y153.031 E48.18333
G1 X54.847 Y153.843 E48.26586
G1 X52.476 Y154.74 E48.35018
G1 X50.094 Y155.721 E48.43586
G1 X47.799 Y156.742 E48.51941
G1 X45.491 Y157.849 E48.60454
G1 X41.434 Y159.948 E48.75647
G1 X40.23 Y160.54 E48.80109
G1 X39.079 Y161.02 E48.84257
G1 X38.227 Y161.315 E48.87256
G1 X37.061 Y161.687 E48.91327
G1 X36.189 Y161.921 E48.9433
G1 X34.989 Y162.112 E48.98371
G1 X33.644 Y162.24 E49.02865
G1 X32.729 Y162.303 E49.05915
G1 X31.857 Y162.326 E49.08817
G1 X31.163 Y162.308 E49.11126
G1 X30.056 Y162.252 E49.14812
G1 X28.369 Y162.142 E49.20435
G1 X26.509 Y161.975 E49.26646
G1 X25.33 Y161.827 E49.30599
G1 X24.612 Y161.724 E49.33011
G1 X23.829 Y161.58 E49.35659
G1 X22.692 Y161.322 E49.39537
G1 X21.536 Y161.024 E49.43507
G1 X20.828 Y160.809 E49.45968
G1 X18.885 Y160.173 E49.52768
G1 X17.741 Y159.769 E49.56803
G1 X16.96 Y159.471 E49.59584
G1 X15.84 Y158.957 E49.63682
G1 X15.415 Y158.73 E49.65285
G1 X14.638 Y158.27 E49.68288
G1 X13.904 Y157.742 E49.71296
G1 X13.221 Y157.152 E49.74297
G1 X12.592 Y156.504 E49.77301
G1 X12.023 Y155.803 E49.80304
G1 X11.285 Y154.665 E49.84815
G1 X10.814 Y153.739 E49.88271
G1 X10.479 Y152.9 E49.91275
G1 X10.225 Y152.061 E49.94191
G1 X10.088 Y151.526 E49.96028
G1 X9.942 Y150.894 E49.98185
G1 X9.785 Y150.004 E50.01191
G1 X9.708 Y149.104 E50.04195
G1 X9.701 Y148.355 E50.06687
G1 X9.749 Y147.453 E50.09691
G1 X9.876 Y146.559 E50.12694
G1 X10.082 Y145.68 E50.15697
G1 X10.364 Y144.822 E50.18701
G1 X10.555 Y144.355 E50.20379
G1 X11.21 Y142.857 E50.25817
G1 X12.224 Y140.416 E50.34608
G1 X13.115 Y138.089 E50.42896
G1 X13.964 Y135.672 E50.51417
G1 X14.742 Y133.239 E50.59912
G1 X15.437 Y130.834 E50.68239
G1 X16.076 Y128.358 E50.76744
G1 X16.643 Y125.875 E50.85215
G1 X17.139 Y123.375 E50.93692
G1 X17.562 Y120.88 E51.02109
G1 X17.912 Y118.393 E51.10462
G1 X18.195 Y115.86 E51.18939
G1 X18.407 Y113.312 E51.27443
G1 X18.546 Y110.765 E51.35927
G1 X18.613 Y108.258 E51.44269
G1 X18.608 Y105.689 E51.52813
G1 X18.533 Y103.191 E51.61125
G1 X18.383 Y100.617 E51.69701
G1 X18.163 Y98.083 E51.78161
G1 X17.875 Y95.593 E51.86498
G1 X17.51 Y93.056 E51.95023
G1 X17.076 Y90.552 E52.03475
G1 X16.579 Y88.095 E52.11813
G1 X16.001 Y85.6 E52.20331
G1 X15.358 Y83.149 E52.28759
G1 X14.638 Y80.689 E52.37284
G1 X13.866 Y78.303 E52.45625
G1 X13.004 Y75.875 E52.54194
G1 X12.096 Y73.531 E52.62555
G1 X11.11 Y71.185 E52.71019
G1 X9.815 Y68.349 E52.81388
G1 X9.476 Y67.511 E52.84395
G1 X9.213 Y66.647 E52.87399
G1 X9.028 Y65.764 E52.904
G1 X8.906 Y64.721 E52.93892
G1 X8.88 Y63.708 E52.97263
G1 X8.937 Y62.807 E53.00265
G1 X9.071 Y61.923 E53.03239
G1 X9.19 Y61.32 E53.05283
G1 X9.33 Y60.695 E53.07414
G1 X9.574 Y59.825 E53.10419
