;FLAVOR:Marlin
;TIME:2163
;Filament used: 1.26425m
;Layer height: 0.2
;MINX:6.111
;MINY:19.313
;MINZ:0.2
;MAXX:214.596
;MAXY:210.682
;MAXZ:7.2
;Generated with Cura_SteamEngine 5.4.0
M82 ;absolute extrusion mode
; Ender 3 Custom Start G-code
G92 E0 ; Reset Extruder
G28 ; Home all axes
M104 S175 ; Start heating up the nozzle most of the way
M190 S60 ; Start heating the bed, wait until target temperature reached
M109 S200 ; Finish heating the nozzle
G1 Z2.0 F3000 ; Move Z Axis up little to prevent scratching of Heat Bed
G1 X0.1 Y20 Z0.3 F5000.0 ; Move to start position
G1 X0.1 Y200.0 Z0.3 F1500.0 E15 ; Draw the first line
G1 X0.4 Y200.0 Z0.3 F5000.0 ; Move to side a little
G1 X0.4 Y20 Z0.3 F1500.0 E30 ; Draw the second line
G92 E0 ; Reset Extruder
G1 Z2.0 F3000 ; Move Z Axis up little to prevent scratching of Heat Bed
G1 X5 Y20 Z0.3 F5000.0 ; Move over to prevent blob squish
G92 E0
G92 E0
G1 F1500 E-6.5
;LAYER_COUNT:36
;LAYER:0
M107
G0 F6000 X26.935 Y23.441 Z0.2
;TYPE:SKIRT
G1 F1500 E0
G1 F1200 X27.639 Y22.77 E0.03235
G1 X28.401 Y22.162 E0.06477
G1 X29.212 Y21.625 E0.09712
G1 X30.068 Y21.16 E0.12952
G1 X30.896 Y20.799 E0.15956
G1 X31.901 Y20.451 E0.19494
G1 X32.825 Y20.191 E0.22686
G1 X33.431 Y20.067 E0.24744
G1 X34.35 Y19.911 E0.27844
G1 X36.119 Y19.662 E0.33786
G1 X37.59 Y19.489 E0.38712
G1 X38.301 Y19.419 E0.41088
G1 X38.858 Y19.379 E0.42946
G1 X40.048 Y19.328 E0.46907
G1 X40.792 Y19.313 E0.49382
G1 X41.341 Y19.316 E0.51208
G1 X41.947 Y19.342 E0.53226
G1 X43.082 Y19.416 E0.57009
G1 X43.956 Y19.489 E0.59926
G1 X45.653 Y19.679 E0.65605
G1 X47.091 Y19.872 E0.70431
G1 X48.664 Y20.114 E0.75724
G1 X49.636 Y20.313 E0.79024
G1 X50.332 Y20.495 E0.81417
G1 X51.837 Y20.929 E0.86627
G1 X52.732 Y21.232 E0.89769
G1 X53.933 Y21.782 E0.94163
G1 X54.911 Y22.307 E0.97855
G1 X55.886 Y22.865 E1.01591
G1 X57.016 Y23.614 E1.061
G1 X58.26 Y24.56 E1.11298
G1 X61.619 Y27.244 E1.25599
G1 X63.661 Y28.779 E1.34096
G1 X65.679 Y30.207 E1.42318
G1 X67.807 Y31.626 E1.50825
G1 X69.911 Y32.943 E1.59081
G1 X72.118 Y34.241 E1.67597
G1 X74.277 Y35.429 E1.75793
G1 X76.537 Y36.591 E1.84245
G1 X79.032 Y37.782 E1.9344
G1 X91.282 Y43.407 E2.38274
G1 X207.478 Y96.638 E6.63368
G1 X208.143 Y96.955 E6.65818
G1 X209.002 Y97.415 E6.69059
G1 X209.788 Y97.928 E6.7218
G1 X210.58 Y98.552 E6.75534
G1 X211.289 Y99.221 E6.78776
G1 X211.912 Y99.922 E6.81895
G1 X212.513 Y100.733 E6.85253
G1 X213.02 Y101.563 E6.88488
G1 X213.423 Y102.371 E6.91491
G1 X213.805 Y103.344 E6.94968
G1 X214.06 Y104.21 E6.9797
G1 X214.264 Y105.236 E7.01449
G1 X214.366 Y106.2 E7.04674
G1 X214.386 Y107.055 E7.07518
G1 X214.349 Y109.281 E7.14923
G1 X214.374 Y111.779 E7.23232
G1 X214.517 Y115.242 E7.34759
G1 X214.583 Y116.319 E7.38348
G1 X214.596 Y117.293 E7.41588
G1 X214.523 Y118.265 E7.4483
G1 X214.364 Y119.225 E7.48067
G1 X214.141 Y120.1 E7.5107
G1 X213.793 Y121.086 E7.54548
G1 X213.387 Y121.971 E7.57786
G1 X212.904 Y122.817 E7.61026
G1 X212.349 Y123.616 E7.64262
G1 X211.725 Y124.364 E7.67502
G1 X211.063 Y125.03 E7.70625
G1 X210.291 Y125.678 E7.73977
G1 X209.5 Y126.232 E7.77189
G1 X208.932 Y126.569 E7.79386
G1 X208.335 Y126.891 E7.81642
G1 X93.93 Y184.7 E12.07974
G1 X81.948 Y190.768 E12.52645
G1 X79.722 Y191.935 E12.61005
G1 X77.484 Y193.191 E12.6954
G1 X75.341 Y194.473 E12.77846
G1 X73.207 Y195.834 E12.86265
G1 X71.113 Y197.254 E12.9468
G1 X69.111 Y198.697 E13.02888
G1 X67.065 Y200.26 E13.11451
G1 X65.144 Y201.818 E13.19678
G1 X61.529 Y204.933 E13.35549
G1 X60.636 Y205.67 E13.394
G1 X59.57 Y206.445 E13.43784
G1 X58.577 Y207.075 E13.47695
G1 X57.709 Y207.597 E13.51064
G1 X56.84 Y208.064 E13.54345
G1 X55.65 Y208.555 E13.58627
G1 X54.277 Y209.022 E13.6345
G1 X53.355 Y209.306 E13.66659
G1 X52.467 Y209.538 E13.69712
G1 X51.872 Y209.661 E13.71732
G1 X50.703 Y209.878 E13.75687
G1 X49.121 Y210.149 E13.81025
G1 X47.205 Y210.428 E13.87465
G1 X46.183 Y210.54 E13.90885
G1 X45.261 Y210.626 E13.93965
G1 X44.405 Y210.671 E13.96816
G1 X43.076 Y210.682 E14.01236
G1 X42.134 Y210.663 E14.0437
G1 X41.503 Y210.632 E14.06471
G1 X39.505 Y210.473 E14.13137
G1 X37.66 Y210.276 E14.19309
G1 X37.088 Y210.197 E14.21229
G1 X35.807 Y209.941 E14.25574
G1 X35.234 Y209.789 E14.27546
G1 X34.306 Y209.496 E14.30783
G1 X33.407 Y209.122 E14.34021
G1 X32.544 Y208.67 E14.37261
G1 X31.724 Y208.143 E14.40503
G1 X30.955 Y207.546 E14.43741
G1 X30.266 Y206.909 E14.46862
G1 X29.589 Y206.161 E14.50218
G1 X29.044 Y205.442 E14.53219
G1 X28.382 Y204.36 E14.57438
G1 X27.968 Y203.581 E14.60372
G1 X27.685 Y203.01 E14.62491
G1 X27.301 Y202.114 E14.65734
G1 X27 Y201.194 E14.68953
G1 X26.797 Y200.35 E14.7184
G1 X26.63 Y199.392 E14.75075
G1 X26.551 Y198.457 E14.78196
G1 X26.554 Y197.473 E14.81468
G1 X26.712 Y196.063 E14.86187
G1 X26.909 Y194.972 E14.89875
G1 X27.344 Y192.378 E14.98623
G1 X27.685 Y189.907 E15.06919
G1 X27.958 Y187.418 E15.15248
G1 X28.167 Y184.868 E15.23757
G1 X28.297 Y182.386 E15.32024
G1 X28.359 Y179.846 E15.40474
G1 X28.35 Y177.34 E15.48809
G1 X28.268 Y174.822 E15.57189
G1 X28.116 Y172.297 E15.65602
G1 X27.892 Y169.78 E15.74007
G1 X27.603 Y167.334 E15.82199
G1 X27.233 Y164.797 E15.90726
G1 X26.8 Y162.328 E15.99063
G1 X26.301 Y159.887 E16.0735
G1 X25.722 Y157.418 E16.15785
G1 X25.078 Y154.98 E16.24172
G1 X24.367 Y152.57 E16.32529
G1 X23.595 Y150.199 E16.40823
G1 X22.731 Y147.783 E16.49357
G1 X21.821 Y145.447 E16.57695
G1 X20.86 Y143.172 E16.65909
G1 X19.799 Y140.846 E16.74412
G1 X18.678 Y138.562 E16.82874
G1 X17.522 Y136.367 E16.91126
G1 X16.285 Y134.173 E16.99503
G1 X14.986 Y132.012 E17.07889
G1 X13.632 Y129.898 E17.16239
G1 X12.206 Y127.804 E17.24665
G1 X10.754 Y125.793 E17.32915
G1 X8.57 Y122.974 E17.44775
G1 X8.039 Y122.243 E17.4778
G1 X7.503 Y121.348 E17.5125
G1 X7.109 Y120.536 E17.54252
G1 X6.655 Y119.309 E17.58604
G1 X6.396 Y118.331 E17.61969
G1 X6.22 Y117.303 E17.65437
G1 X6.145 Y116.38 E17.68517
G1 X6.12 Y115.712 E17.70741
G1 X6.111 Y115.044 E17.72963
G1 X6.154 Y114.073 E17.76195
G1 X6.27 Y113.177 E17.792
G1 X6.454 Y112.305 E17.82165
G1 X6.719 Y111.368 E17.85403
G1 X7.066 Y110.458 E17.88643
G1 X7.491 Y109.583 E17.91878
G1 X7.954 Y108.807 E17.94883
G1 X8.257 Y108.367 E17.9666
G1 X9.039 Y107.29 E18.01087
G1 X10.537 Y105.155 E18.09762
G1 X11.936 Y103.038 E18.18201
G1 X13.245 Y100.929 E18.26457
G1 X14.525 Y98.729 E18.34923
G1 X15.728 Y96.522 E18.43283
G1 X16.866 Y94.284 E18.51634
G1 X17.935 Y92.025 E18.59946
G1 X18.952 Y89.71 E18.68356
G1 X19.911 Y87.352 E18.76823
G1 X20.788 Y85.005 E18.85156
G1 X21.593 Y82.648 E18.9344
G1 X22.344 Y80.228 E19.01868
G1 X23.026 Y77.789 E19.10291
G1 X23.628 Y75.368 E19.18588
G1 X24.17 Y72.898 E19.26999
G1 X24.639 Y70.429 E19.35358
G1 X25.042 Y67.92 E19.4381
G1 X25.366 Y65.46 E19.52062
G1 X25.626 Y62.95 E19.60455
G1 X25.816 Y60.41 E19.68927
G1 X25.931 Y57.905 E19.77267
G1 X25.976 Y55.393 E19.85624
G1 X25.951 Y52.91 E19.93883
G1 X25.852 Y50.341 E20.02434
G1 X25.687 Y47.869 E20.10674
G1 X25.444 Y45.326 E20.1917
G1 X25.136 Y42.854 E20.27456
G1 X24.757 Y40.377 E20.3579
G1 X24.309 Y37.914 E20.44117
G1 X23.584 Y34.523 E20.5565
G1 X23.424 Y33.563 E20.58887
G1 X23.351 Y32.591 E20.62129
G1 X23.364 Y31.617 E20.65369
G1 X23.476 Y30.519 E20.6904
G1 X23.683 Y29.456 E20.72642
G1 X23.942 Y28.555 E20.7576
G1 X24.295 Y27.635 E20.79037
G1 X24.549 Y27.054 E20.81146
G1 X24.823 Y26.467 E20.83301
G1 X25.294 Y25.591 E20.86609
G1 X25.805 Y24.809 E20.89716
G1 X26.277 Y24.193 E20.92297
G1 X26.935 Y23.441 E20.9562
G0 F6000 X27.212 Y23.73
G1 F1200 X27.889 Y23.082 E20.98737
G1 X28.622 Y22.495 E21.01861
G1 X29.403 Y21.976 E21.0498
G1 X30.228 Y21.527 E21.08104
G1 X31.056 Y21.166 E21.11108
G1 X32.01 Y20.836 E21.14465
G1 X32.906 Y20.583 E21.17562
G1 X33.498 Y20.461 E21.19573
G1 X34.406 Y20.307 E21.22636
G1 X36.166 Y20.059 E21.28547
G1 X37.629 Y19.887 E21.33447
G1 X38.329 Y19.818 E21.35786
G1 X38.875 Y19.779 E21.37607
G1 X40.056 Y19.728 E21.41539
G1 X40.79 Y19.713 E21.4398
G1 X41.324 Y19.716 E21.45756
G1 X41.921 Y19.741 E21.47744
G1 X43.049 Y19.815 E21.51504
G1 X43.911 Y19.887 E21.54381
G1 X45.608 Y20.077 E21.6006
G1 X47.03 Y20.267 E21.64832
G1 X48.584 Y20.506 E21.70061
G1 X49.535 Y20.7 E21.73289
G1 X50.221 Y20.879 E21.75647
G1 X51.709 Y21.308 E21.80798
G1 X52.565 Y21.596 E21.83802
G1 X53.766 Y22.146 E21.88195
G1 X54.712 Y22.654 E21.91767
G1 X55.687 Y23.212 E21.95503
G1 X56.774 Y23.933 E21.99842
G1 X58.01 Y24.872 E22.05004
G1 X61.379 Y27.564 E22.19348
G1 X63.43 Y29.106 E22.27882
G1 X65.448 Y30.534 E22.36104
G1 X67.585 Y31.959 E22.44647
G1 X69.708 Y33.288 E22.52978
G1 X71.915 Y34.586 E22.61494
G1 X74.094 Y35.785 E22.69766
G1 X76.354 Y36.947 E22.78218
G1 X78.865 Y38.146 E22.87473
G1 X91.115 Y43.771 E23.32307
G1 X207.306 Y96.999 E27.57381
G1 X207.955 Y97.308 E27.59772
G1 X208.783 Y97.75 E27.62893
G1 X209.569 Y98.263 E27.66015
G1 X210.306 Y98.843 E27.69135
G1 X210.99 Y99.487 E27.72259
G1 X211.613 Y100.188 E27.75378
G1 X212.172 Y100.942 E27.785
G1 X212.662 Y101.742 E27.81621
G1 X213.065 Y102.55 E27.84624
G1 X213.421 Y103.457 E27.87864
G1 X213.676 Y104.323 E27.90867
G1 X213.866 Y105.279 E27.94109
G1 X213.966 Y106.21 E27.97223
G1 X213.986 Y107.048 E28.00011
G1 X213.949 Y109.274 E28.07416
G1 X213.974 Y111.796 E28.15805
G1 X214.118 Y115.259 E28.27332
G1 X214.183 Y116.325 E28.30885
G1 X214.197 Y117.264 E28.34008
G1 X214.128 Y118.2 E28.3713
G1 X213.976 Y119.126 E28.40251
G1 X213.753 Y120.001 E28.43254
G1 X213.429 Y120.92 E28.46495
G1 X213.039 Y121.773 E28.49615
G1 X212.575 Y122.589 E28.52737
G1 X212.041 Y123.36 E28.55856
G1 X211.441 Y124.082 E28.58978
G1 X210.779 Y124.748 E28.62102
G1 X210.061 Y125.351 E28.6522
G1 X209.296 Y125.888 E28.68329
G1 X208.742 Y126.217 E28.70472
G1 X208.155 Y126.534 E28.72691
G1 X93.75 Y184.343 E32.99023
G1 X81.768 Y190.411 E33.43694
G1 X79.526 Y191.586 E33.52113
G1 X77.288 Y192.842 E33.60649
G1 X75.126 Y194.136 E33.69029
G1 X72.982 Y195.503 E33.77486
G1 X70.888 Y196.923 E33.85901
G1 X68.868 Y198.379 E33.94183
G1 X66.822 Y199.942 E34.02747
G1 X64.892 Y201.507 E34.11011
G1 X61.274 Y204.624 E34.26895
G1 X60.381 Y205.361 E34.30746
G1 X59.335 Y206.121 E34.35046
G1 X58.371 Y206.732 E34.38842
G1 X57.519 Y207.245 E34.4215
G1 X56.687 Y207.694 E34.45294
G1 X55.521 Y208.176 E34.49491
G1 X54.159 Y208.64 E34.54277
G1 X53.254 Y208.919 E34.57426
G1 X52.386 Y209.146 E34.6041
G1 X51.799 Y209.268 E34.62405
G1 X50.636 Y209.484 E34.66339
G1 X49.063 Y209.753 E34.71647
G1 X47.161 Y210.03 E34.78039
G1 X46.146 Y210.142 E34.81436
G1 X45.24 Y210.227 E34.84462
G1 X44.402 Y210.271 E34.87253
G1 X43.084 Y210.282 E34.91637
G1 X42.154 Y210.264 E34.94731
G1 X41.535 Y210.233 E34.96792
G1 X39.547 Y210.075 E35.03425
G1 X37.714 Y209.88 E35.09556
G1 X37.166 Y209.805 E35.11396
G1 X35.909 Y209.554 E35.15659
G1 X35.354 Y209.407 E35.17569
G1 X34.459 Y209.126 E35.20689
G1 X33.592 Y208.767 E35.2381
G1 X32.76 Y208.333 E35.26931
G1 X31.969 Y207.827 E35.30054
G1 X31.227 Y207.252 E35.33177
G1 X30.538 Y206.615 E35.36297
G1 X29.908 Y205.919 E35.3942
G1 X29.363 Y205.2 E35.42421
G1 X28.724 Y204.152 E35.46503
G1 X28.326 Y203.403 E35.49324
G1 X28.052 Y202.852 E35.51371
G1 X27.681 Y201.989 E35.54495
G1 X27.389 Y201.1 E35.57608
G1 X27.191 Y200.281 E35.6041
G1 X27.029 Y199.357 E35.6353
G1 X26.951 Y198.457 E35.66535
G1 X26.952 Y197.518 E35.69658
G1 X27.11 Y196.108 E35.74377
G1 X27.303 Y195.043 E35.77977
G1 X27.738 Y192.444 E35.86741
G1 X28.083 Y189.951 E35.95112
G1 X28.356 Y187.462 E36.0344
G1 X28.565 Y184.901 E36.11986
G1 X28.697 Y182.396 E36.2033
G1 X28.759 Y179.856 E36.2878
G1 X28.75 Y177.339 E36.37152
G1 X28.668 Y174.809 E36.45571
G1 X28.515 Y172.273 E36.54021
G1 X28.29 Y169.745 E36.62463
G1 X27.999 Y167.276 E36.70731
G1 X27.629 Y164.739 E36.79259
G1 X27.194 Y162.259 E36.87633
G1 X26.693 Y159.807 E36.95957
G1 X26.109 Y157.316 E37.04467
G1 X25.465 Y154.878 E37.12854
G1 X24.751 Y152.457 E37.21249
G1 X23.972 Y150.064 E37.29619
G1 X23.108 Y147.648 E37.38153
G1 X22.194 Y145.302 E37.46527
G1 X21.224 Y143.006 E37.54817
G1 X20.163 Y140.68 E37.63321
G1 X19.037 Y138.386 E37.7182
G1 X17.876 Y136.181 E37.80108
G1 X16.628 Y133.967 E37.88561
G1 X15.329 Y131.806 E37.96948
G1 X13.969 Y129.682 E38.05336
G1 X12.537 Y127.579 E38.13798
G1 X11.07 Y125.548 E38.22131
G1 X8.894 Y122.739 E38.33949
G1 X8.363 Y122.008 E38.36955
G1 X7.863 Y121.173 E38.40192
G1 X7.469 Y120.361 E38.43193
G1 X7.042 Y119.207 E38.47286
G1 X6.783 Y118.229 E38.50651
G1 X6.619 Y117.27 E38.53887
G1 X6.545 Y116.365 E38.56907
G1 X6.52 Y115.706 E38.591
G1 X6.511 Y115.061 E38.61246
G1 X6.551 Y114.124 E38.64365
G1 X6.667 Y113.228 E38.6737
G1 X6.839 Y112.413 E38.70141
G1 X7.093 Y111.51 E38.73261
G1 X7.426 Y110.632 E38.76384
G1 X7.835 Y109.788 E38.79503
G1 X8.298 Y109.012 E38.82509
G1 X8.581 Y108.602 E38.84166
G1 X9.363 Y107.525 E38.88592
G1 X10.871 Y105.376 E38.97324
G1 X12.27 Y103.259 E39.05764
G1 X13.585 Y101.14 E39.14059
G1 X14.871 Y98.93 E39.22563
G1 X16.085 Y96.703 E39.30999
G1 X17.223 Y94.465 E39.3935
G1 X18.297 Y92.196 E39.47699
G1 X19.323 Y89.861 E39.56182
G1 X20.282 Y87.503 E39.64649
G1 X21.163 Y85.145 E39.73021
G1 X21.972 Y82.777 E39.81344
G1 X22.726 Y80.347 E39.89806
G1 X23.411 Y77.897 E39.98267
G1 X24.019 Y75.454 E40.06641
G1 X24.561 Y72.984 E40.15051
G1 X25.032 Y70.504 E40.23447
G1 X25.439 Y67.972 E40.31977
G1 X25.763 Y65.512 E40.4023
G1 X26.024 Y62.991 E40.48659
G1 X26.215 Y60.44 E40.57168
G1 X26.331 Y57.923 E40.65548
G1 X26.376 Y55.4 E40.73941
G1 X26.351 Y52.906 E40.82237
G1 X26.252 Y50.326 E40.90824
G1 X26.086 Y47.842 E40.99104
G1 X25.842 Y45.288 E41.07638
G1 X25.533 Y42.805 E41.1596
G1 X25.151 Y40.305 E41.24371
G1 X24.703 Y37.842 E41.32698
G1 X23.978 Y34.457 E41.44212
G1 X23.823 Y33.532 E41.47331
G1 X23.751 Y32.596 E41.50453
G1 X23.762 Y31.657 E41.53577
G1 X23.869 Y30.595 E41.57127
G1 X24.068 Y29.566 E41.60613
G1 X24.316 Y28.698 E41.63615
G1 X24.662 Y27.795 E41.66832
G1 X24.912 Y27.223 E41.68908
G1 X25.176 Y26.656 E41.70988
G1 X25.629 Y25.81 E41.7418
G1 X26.14 Y25.028 E41.77287
G1 X26.594 Y24.437 E41.79766
G1 X27.212 Y23.73 E41.82889
G0 F6000 X27.489 Y24.019
G1 F1200 X28.14 Y23.394 E41.8589
G1 X28.844 Y22.828 E41.88895
G1 X29.595 Y22.327 E41.91897
G1 X30.388 Y21.894 E41.94903
G1 X31.216 Y21.533 E41.97907
G1 X32.119 Y21.221 E42.01084
G1 X32.987 Y20.975 E42.04085
G1 X33.565 Y20.855 E42.06049
G1 X34.462 Y20.703 E42.09075
G1 X36.213 Y20.456 E42.14956
G1 X37.668 Y20.285 E42.19829
G1 X38.357 Y20.217 E42.22131
G1 X38.892 Y20.179 E42.23915
G1 X40.064 Y20.128 E42.27817
G1 X40.788 Y20.113 E42.30226
G1 X41.308 Y20.116 E42.31955
G1 X41.895 Y20.14 E42.33909
G1 X43.016 Y20.214 E42.37646
G1 X43.866 Y20.284 E42.40483
G1 X45.555 Y20.474 E42.46136
G1 X46.969 Y20.662 E42.5088
G1 X48.504 Y20.898 E42.56045
G1 X49.434 Y21.087 E42.59202
G1 X50.11 Y21.263 E42.61525
G1 X51.581 Y21.687 E42.66617
G1 X52.437 Y21.975 E42.69621
G1 X53.577 Y22.499 E42.73794
G1 X54.513 Y23.001 E42.77326
G1 X55.488 Y23.559 E42.81063
G1 X56.532 Y24.251 E42.85229
G1 X57.76 Y25.184 E42.90358
G1 X61.139 Y27.884 E43.04744
G1 X63.19 Y29.426 E43.13279
G1 X65.226 Y30.867 E43.21575
G1 X67.363 Y32.292 E43.30118
G1 X69.505 Y33.633 E43.38523
G1 X71.712 Y34.931 E43.47039
G1 X73.911 Y36.141 E43.55387
G1 X76.171 Y37.303 E43.63839
G1 X78.698 Y38.51 E43.73154
G1 X90.948 Y44.135 E44.17987
G1 X207.134 Y97.36 E48.43042
G1 X207.767 Y97.661 E48.45373
G1 X208.565 Y98.085 E48.48379
G1 X209.322 Y98.577 E48.51382
G1 X210.032 Y99.135 E48.54385
G1 X210.691 Y99.753 E48.5739
G1 X211.292 Y100.427 E48.60394
G1 X211.831 Y101.151 E48.63396
G1 X212.304 Y101.921 E48.66401
G1 X212.707 Y102.729 E48.69404
G1 X213.037 Y103.57 E48.72409
G1 X213.292 Y104.436 E48.75412
G1 X213.468 Y105.322 E48.78416
G1 X213.566 Y106.22 E48.81421
G1 X213.586 Y107.041 E48.84152
G1 X213.549 Y109.267 E48.91557
G1 X213.574 Y111.813 E49.00025
G1 X213.719 Y115.276 E49.11553
G1 X213.783 Y116.332 E49.15072
G1 X213.798 Y117.235 E49.18076
G1 X213.733 Y118.136 E49.21081
G1 X213.588 Y119.027 E49.24083
G1 X213.365 Y119.902 E49.27086
G1 X213.065 Y120.754 E49.30091
G1 X212.691 Y121.576 E49.33094
G1 X212.246 Y122.362 E49.36098
G1 X211.733 Y123.105 E49.39101
G1 X211.157 Y123.8 E49.42104
G1 X210.521 Y124.442 E49.45109
G1 X209.831 Y125.024 E49.48112
G1 X209.092 Y125.544 E49.51117
G1 X208.552 Y125.865 E49.53207
